luts/Arrow_Vibrant_Turquoise_DJI_Drone.cube
TITLE "Arrow Vibrant Turquoise - DJI Drone"
# Color Graded by VegasDavinciLinkTool
# Look: Vibrant Turquoise Lagoon & Golden Sun Pop
LUT_3D_SIZE 5
0.000000 0.000000 0.000000
0.225162 0.000000 0.009100
0.592094 0.000000 0.042258
0.870486 0.000000 0.031517
1.000000 0.014242 0.000000
0.000000 0.188721 0.000000
0.179447 0.183107 0.000000
0.545975 0.180660 0.000000
0.866174 0.130397 0.000000
1.000000 0.133665 0.000000
0.000004 0.503070 0.000000
0.053721 0.501648 0.000000
0.463268 0.484938 0.000000
0.825761 0.431519 0.000000
0.997775 0.349700 0.000000
0.000013 0.822534 0.000000
0.000289 0.822108 0.000000
0.231088 0.815523 0.000000
0.754602 0.777868 0.000000
0.983968 0.612000 0.000000
0.006536 1.000000 0.000000
0.006554 1.000000 0.000000
0.008282 1.000000 0.000000
0.302491 1.000000 0.000000
1.000000 0.995389 0.000000
0.000000 0.005359 0.227092
0.251871 0.000000 0.233386
0.591369 0.000582 0.225105
0.867793 0.000000 0.180151
1.000000 0.000000 0.107224
0.000000 0.189971 0.186544
0.181846 0.181879 0.173302
0.541488 0.082445 0.090010
0.871173 0.001409 0.036412
1.000000 0.000000 0.028977
0.000000 0.502253 0.100575
0.006379 0.499953 0.041381
0.465522 0.479825 0.025382
0.847141 0.389774 0.013739
1.000000 0.232198 0.000000
0.000000 0.822202 0.000000
0.000000 0.821841 0.000000
0.247578 0.815641 0.000000
0.761543 0.779860 0.000000
0.996572 0.609182 0.000000
0.006521 1.000000 0.000000
0.006528 1.000000 0.000000
0.008875 1.000000 0.000000
0.315230 1.000000 0.000000
1.000000 0.998937 0.000000
0.000000 0.010446 0.600567
0.250312 0.000000 0.583240
0.590376 0.000000 0.556617
0.862928 0.000000 0.489050
1.000000 0.008542 0.354497
0.000000 0.244680 0.592414
0.193979 0.154387 0.550635
0.549459 0.120619 0.526923
0.867200 0.099304 0.467351
1.000000 0.000000 0.286182
0.000000 0.507973 0.511889
0.000000 0.502688 0.504883
0.482089 0.482155 0.472352
0.860504 0.330684 0.335546
1.000000 0.168324 0.203037
0.000000 0.819165 0.326214
0.000019 0.818677 0.322759
0.194932 0.811969 0.238042
0.773924 0.781891 0.188221
1.000000 0.602377 0.164645
0.006520 1.000000 0.000000
0.006520 1.000000 0.000000
0.010368 1.000000 0.000000
0.346942 1.000000 0.000000
1.000000 1.000000 0.000000
0.000000 0.023114 0.948511
0.246981 0.000000 0.934332
0.593618 0.000000 0.902057
0.857513 0.000000 0.830326
1.000000 0.000536 0.691691
0.000000 0.168944 0.949878
0.208932 0.076269 0.928146
0.573264 0.039483 0.903231
0.859817 0.074701 0.834586
1.000000 0.057851 0.690142
0.000000 0.595743 0.952640
0.000000 0.561011 0.945060
0.488632 0.427560 0.879770
0.858136 0.359117 0.842516
1.000000 0.253473 0.677952
0.000000 0.822850 0.837053
0.000000 0.821909 0.835384
0.168751 0.818472 0.824346
0.797772 0.790184 0.771508
1.000000 0.569227 0.571732
0.010285 1.000000 0.515541
0.010274 1.000000 0.514048
0.011835 1.000000 0.509596
0.314588 1.000000 0.418927
1.000000 1.000000 0.344900
0.000000 0.011028 1.000000
0.215309 0.000000 1.000000
0.574876 0.000000 1.000000
0.875150 0.000000 1.000000
1.000000 0.000000 0.974577
0.004108 0.000000 1.000000
0.233691 0.000000 1.000000
0.577548 0.000000 1.000000
0.876715 0.000000 1.000000
1.000000 0.000000 0.975278
0.000000 0.445363 1.000000
0.000000 0.359071 1.000000
0.503966 0.274030 1.000000
0.869221 0.158483 1.000000
1.000000 0.104673 0.993540
0.000000 0.803424 1.000000
0.000000 0.801838 1.000000
0.054202 0.756492 1.000000
0.794012 0.699316 0.995048
1.000000 0.578135 0.991109
0.012524 0.988360 0.992844
0.012524 0.988360 0.992844
0.012524 0.988360 0.992844
0.260768 0.995123 0.989714
1.000000 1.000000 0.980000
