luts/Arrow_Vibrant_Turquoise_Sony_A7.cube
TITLE "Arrow Vibrant Turquoise - Sony A7 IV/S3"
# Color Graded by VegasDavinciLinkTool
# Look: Vibrant Turquoise Lagoon & Golden Sun Pop
LUT_3D_SIZE 33
0.015044 0.015031 0.013368
0.018936 0.012977 0.011775
0.026198 0.009454 0.008768
0.034389 0.005505 0.005798
0.042993 0.001725 0.003089
0.052292 0.000000 0.001802
0.065522 0.000000 0.002324
0.085537 0.000000 0.000673
0.109368 0.000312 0.000000
0.139352 0.000088 0.000000
0.176237 0.000000 0.000000
0.223689 0.000000 0.000000
0.280927 0.000000 0.000000
0.344591 0.000000 0.000000
0.411402 0.000000 0.000000
0.480237 0.000000 0.000000
0.550636 0.000000 0.000000
0.623067 0.000000 0.000000
0.695680 0.000000 0.000000
0.768372 0.000000 0.000000
0.841091 0.000000 0.000000
0.906215 0.000000 0.000000
0.951239 0.000000 0.000000
0.975629 0.000000 0.000000
0.995210 0.000000 0.000000
0.996155 0.000000 0.000000
0.996155 0.000000 0.000000
0.996155 0.000000 0.000000
0.996155 0.000000 0.000000
0.996155 0.000000 0.000000
0.996155 0.000000 0.000000
0.996155 0.000000 0.000000
0.996155 0.000000 0.000000
0.013381 0.021184 0.013626
0.019054 0.019573 0.012674
0.026669 0.016983 0.011321
0.035249 0.011500 0.006915
0.044097 0.007327 0.003893
0.053769 0.003018 0.000974
0.067451 0.000706 0.000000
0.086934 0.001836 0.000000
0.110002 0.001802 0.000000
0.138739 0.000611 0.000000
0.174688 0.000000 0.000000
0.221228 0.000000 0.000000
0.278786 0.000000 0.000000
0.342900 0.000000 0.000000
0.410189 0.000000 0.000000
0.479200 0.000000 0.000000
0.550341 0.000000 0.000000
0.623364 0.000000 0.000000
0.695680 0.000000 0.000000
0.768372 0.000000 0.000000
0.841393 0.000000 0.000000
0.906215 0.000000 0.000000
0.951239 0.000000 0.000000
0.975709 0.000000 0.000000
0.995210 0.000000 0.000000
0.996155 0.000000 0.000000
0.996155 0.000000 0.000000
0.996155 0.000000 0.000000
0.996155 0.000000 0.000000
0.996155 0.000000 0.000000
0.996155 0.000000 0.000000
0.996155 0.000000 0.000000
0.996155 0.000000 0.000000
0.010254 0.031584 0.013989
0.016766 0.029806 0.013012
0.026237 0.027384 0.011744
0.035154 0.023804 0.010459
0.044511 0.021181 0.008819
0.054606 0.013163 0.002596
0.069016 0.008191 0.000000
0.089118 0.006897 0.000000
0.113092 0.004395 0.000000
0.142695 0.001360 0.000000
0.177771 0.000000 0.000000
0.221974 0.000000 0.000000
0.276931 0.000000 0.000000
0.340693 0.000000 0.000000
0.408024 0.000000 0.000000
0.477947 0.000000 0.000000
0.549671 0.000000 0.000000
0.622910 0.000000 0.000000
0.695821 0.000000 0.000000
0.768529 0.000000 0.000000
0.841393 0.000000 0.000000
0.906215 0.000000 0.000000
0.951239 0.000000 0.000000
0.975709 0.000000 0.000000
0.995210 0.000000 0.000000
0.996155 0.000000 0.000000
0.996155 0.000000 0.000000
0.996155 0.000000 0.000000
0.996155 0.000000 0.000000
0.996155 0.000000 0.000000
0.996155 0.000000 0.000000
0.996155 0.000000 0.000000
0.996155 0.000000 0.000000
0.006829 0.043269 0.014483
0.014135 0.041353 0.013463
0.023733 0.038975 0.012085
0.034273 0.036425 0.010701
0.043973 0.031748 0.010277
0.054243 0.027710 0.007180
0.069411 0.022841 0.005096
0.090003 0.012362 0.000000
0.114768 0.006614 0.000000
0.144652 0.001668 0.000000
0.181285 0.000000 0.000000
0.226077 0.000000 0.000000
0.279103 0.000000 0.000000
0.339719 0.000000 0.000000
0.405706 0.000000 0.000000
0.475272 0.000000 0.000000
0.547678 0.000000 0.000000
0.622346 0.000000 0.000000
0.695522 0.000000 0.000000
0.768847 0.000000 0.000000
0.841393 0.000000 0.000000
0.906503 0.000000 0.000000
0.951415 0.000000 0.000000
0.975709 0.000000 0.000000
0.995210 0.000000 0.000000
0.996155 0.000000 0.000000
0.996155 0.000000 0.000000
0.996155 0.000000 0.000000
0.996155 0.000000 0.000000
0.996155 0.000000 0.000000
0.996155 0.000000 0.000000
0.996155 0.000000 0.000000
0.996155 0.000000 0.000000
0.003165 0.056071 0.015424
0.010980 0.053880 0.014182
0.020522 0.051471 0.012840
0.030985 0.048790 0.011312
0.042343 0.045534 0.009577
0.053351 0.040658 0.010204
0.068945 0.034162 0.005067
0.089660 0.027799 0.002318
0.114738 0.018053 0.000000
0.145105 0.011559 0.000000
0.181994 0.006535 0.000000
0.228107 0.002441 0.000000
0.282164 0.000193 0.000000
0.340906 0.000000 0.000000
0.404217 0.000000 0.000000
0.472751 0.000000 0.000000
0.544720 0.000000 0.000000
0.619777 0.000000 0.000000
0.695129 0.000000 0.000000
0.768372 0.000000 0.000000
0.841694 0.000000 0.000000
0.906503 0.000000 0.000000
0.951415 0.000000 0.000000
0.975709 0.000000 0.000000
0.995210 0.000000 0.000000
0.996155 0.000000 0.000000
0.996155 0.000000 0.000000
0.996155 0.000000 0.000000
0.996155 0.000000 0.000000
0.996155 0.000000 0.000000
0.996155 0.000000 0.000000
0.996155 0.000000 0.000000
0.996155 0.000000 0.000000
0.000000 0.070484 0.016918
0.007453 0.068113 0.015091
0.016933 0.065578 0.013590
0.027352 0.062850 0.012084
0.038930 0.059596 0.010294
0.051805 0.056295 0.008361
0.068296 0.049046 0.008578
0.088775 0.040789 0.002082
0.113958 0.033902 0.000000
0.144506 0.024673 0.000000
0.181876 0.015419 0.000000
0.228302 0.005904 0.000000
0.283583 0.000312 0.000000
0.342931 0.000000 0.000000
0.404448 0.000000 0.000000
0.470170 0.000000 0.000000
0.541935 0.000000 0.000000
0.616959 0.000000 0.000000
0.692593 0.000000 0.000000
0.768292 0.000000 0.000000
0.841551 0.000000 0.000000
0.906503 0.000000 0.000000
0.951415 0.000000 0.000000
0.975709 0.000000 0.000000
0.995210 0.000000 0.000000
0.996155 0.000000 0.000000
0.996155 0.000000 0.000000
0.996155 0.000000 0.000000
0.996155 0.000000 0.000000
0.996155 0.000000 0.000000
0.996155 0.000000 0.000000
0.996155 0.000000 0.000000
0.996155 0.000000 0.000000
0.000000 0.090775 0.021439
0.002523 0.088475 0.016315
0.011719 0.085936 0.014870
0.022186 0.083059 0.013340
0.033864 0.079931 0.011515
0.046926 0.076653 0.009636
0.065965 0.071642 0.006759
0.087006 0.062880 0.007482
0.112153 0.052533 0.000000
0.142885 0.046527 0.000000
0.180207 0.033932 0.000000
0.226584 0.020465 0.000000
0.282179 0.008819 0.000000
0.343601 0.003289 0.000000
0.405429 0.000355 0.000000
0.469350 0.000000 0.000000
0.537827 0.000000 0.000000
0.612966 0.000000 0.000000
0.689082 0.000000 0.000000
0.765556 0.000000 0.000000
0.841393 0.000000 0.000000
0.906773 0.000000 0.000000
0.951415 0.000000 0.000000
0.975805 0.000000 0.000000
0.995210 0.000000 0.000000
0.996155 0.000000 0.000000
0.996155 0.000000 0.000000
0.996155 0.000000 0.000000
0.996155 0.000000 0.000000
0.996155 0.000000 0.000000
0.996155 0.000000 0.000000
0.996155 0.000000 0.000000
0.996155 0.000000 0.000000
0.000000 0.116198 0.026039
0.000000 0.113814 0.019497
0.005869 0.111143 0.016385
0.016126 0.108229 0.014761
0.028125 0.105104 0.012971
0.041626 0.101682 0.011087
0.060800 0.096715 0.008120
0.084644 0.090518 0.004523
0.110060 0.079736 0.006112
0.140389 0.069399 0.000000
0.177653 0.062734 0.000000
0.224181 0.048387 0.000000
0.279540 0.032917 0.000000
0.341180 0.016293 0.000000
0.405276 0.002213 0.000000
0.469134 0.000000 0.000000
0.534094 0.000000 0.000000
0.606080 0.000000 0.000000
0.682804 0.000000 0.000000
0.760209 0.000000 0.000000
0.839184 0.000000 0.000000
0.906503 0.000000 0.000000
0.951494 0.000000 0.000000
0.975805 0.000000 0.000000
0.995210 0.000000 0.000000
0.996155 0.000000 0.000000
0.996155 0.000000 0.000000
0.996155 0.000000 0.000000
0.996155 0.000000 0.000000
0.996155 0.000000 0.000000
0.996155 0.000000 0.000000
0.996155 0.000000 0.000000
0.996155 0.000000 0.000000
0.000000 0.148176 0.030877
0.000000 0.145616 0.025491
0.000000 0.143016 0.019262
0.008964 0.139820 0.016249
0.021781 0.136364 0.014482
0.036579 0.132476 0.012441
0.054480 0.127693 0.009725
0.078085 0.121323 0.006167
0.107209 0.113713 0.001921
0.137807 0.100328 0.004685
0.174261 0.089356 0.000000
0.220527 0.082256 0.000000
0.275997 0.069564 0.000000
0.337589 0.050234 0.000000
0.402468 0.032427 0.000000
0.468223 0.016056 0.000000
0.532648 0.004087 0.000000
0.599575 0.000058 0.000000
0.673446 0.000000 0.000000
0.750455 0.000000 0.000000
0.832051 0.000000 0.000000
0.904190 0.000000 0.000000
0.951415 0.000000 0.000000
0.975805 0.000000 0.000000
0.995210 0.000000 0.000000
0.996155 0.000000 0.000000
0.996155 0.000000 0.000000
0.996155 0.000000 0.000000
0.996155 0.000000 0.000000
0.996155 0.000000 0.000000
0.996155 0.000000 0.000000
0.996155 0.000000 0.000000
0.996155 0.000000 0.000000
0.000000 0.188618 0.037186
0.000000 0.185542 0.033172
0.000000 0.182541 0.026898
0.001952 0.178952 0.017275
0.014932 0.175234 0.015540
0.030695 0.170459 0.013425
0.048421 0.165323 0.010862
0.070648 0.158771 0.007651
0.099201 0.150547 0.003581
0.134389 0.141016 0.000000
0.170504 0.125620 0.003592
0.215774 0.113629 0.000000
0.271132 0.105098 0.000000
0.333011 0.091690 0.000000
0.397897 0.071444 0.000000
0.464360 0.052417 0.000000
0.530751 0.032917 0.000000
0.596401 0.016438 0.000000
0.664879 0.004296 0.000000
0.738401 0.000000 0.000000
0.819064 0.000000 0.000000
0.894387 0.000000 0.000000
0.949816 0.000000 0.000000
0.975885 0.000000 0.000000
0.995210 0.000000 0.000000
0.996155 0.000000 0.000000
0.996155 0.000000 0.000000
0.996155 0.000000 0.000000
0.996155 0.000000 0.000000
0.996155 0.000000 0.000000
0.996155 0.000000 0.000000
0.996155 0.000000 0.000000
0.996155 0.000000 0.000000
0.000000 0.239874 0.045300
0.000000 0.236462 0.043109
0.000000 0.232664 0.033717
0.000000 0.228675 0.022163
0.008577 0.223973 0.015881
0.023364 0.219037 0.013913
0.041193 0.213183 0.011571
0.063043 0.205717 0.008532
0.090201 0.196707 0.004799
0.124507 0.186133 0.000601
0.166704 0.174099 0.000000
0.211248 0.155490 0.002274
0.265624 0.141852 0.000000
0.327402 0.132075 0.000000
0.392670 0.118232 0.000000
0.458831 0.095626 0.000000
0.526477 0.076851 0.000000
0.593571 0.057217 0.000000
0.660087 0.037315 0.000000
0.727745 0.015044 0.000000
0.804803 0.000000 0.000000
0.878934 0.000000 0.000000
0.939494 0.000000 0.000000
0.975149 0.000000 0.000000
0.995210 0.000000 0.000000
0.996155 0.000000 0.000000
0.996155 0.000000 0.000000
0.996155 0.000000 0.000000
0.996155 0.000000 0.000000
0.996155 0.000000 0.000000
0.996155 0.000000 0.000000
0.996155 0.000000 0.000000
0.996155 0.000000 0.000000
0.000000 0.300127 0.052713
0.000000 0.296270 0.046486
0.000000 0.292174 0.037064
0.000000 0.287567 0.026306
0.003467 0.282103 0.014876
0.017414 0.277052 0.013200
0.033521 0.271388 0.011163
0.055532 0.263414 0.008435
0.082081 0.253828 0.005154
0.114008 0.242928 0.001457
0.156448 0.229526 0.000000
0.206499 0.215059 0.000000
0.259836 0.192324 0.001088
0.320751 0.175929 0.000000
0.386175 0.163345 0.000000
0.452936 0.148447 0.000000
0.519937 0.131099 0.000000
0.588743 0.104672 0.000000
0.656554 0.085609 0.000000
0.720818 0.066394 0.000000
0.791393 0.042290 0.000000
0.863383 0.005503 0.000000
0.924915 0.000000 0.000000
0.969612 0.000000 0.000000
0.995194 0.000000 0.000000
0.996155 0.000000 0.000000
0.996155 0.000000 0.000000
0.996155 0.000000 0.000000
0.996155 0.000000 0.000000
0.996155 0.000000 0.000000
0.996155 0.000000 0.000000
0.996155 0.000000 0.000000
0.996155 0.000000 0.000000
0.000000 0.365347 0.056247
0.000000 0.361377 0.049665
0.000000 0.356677 0.042102
0.000000 0.351219 0.027825
0.000000 0.346433 0.013467
0.012562 0.341713 0.011943
0.027798 0.335991 0.010166
0.048478 0.328526 0.007827
0.074478 0.319309 0.004887
0.104852 0.308317 0.001456
0.144929 0.295166 0.000000
0.195651 0.280219 0.000000
0.254889 0.263128 0.000000
0.314470 0.236961 0.000253
0.378721 0.217337 0.000000
0.445764 0.201478 0.000000
0.513353 0.185155 0.000000
0.581371 0.166304 0.000000
0.650650 0.137909 0.000000
0.715851 0.117862 0.000000
0.781588 0.098623 0.000000
0.849324 0.072207 0.000000
0.911112 0.031027 0.000000
0.962190 0.000009 0.000000
0.995098 0.000000 0.000000
0.996155 0.000000 0.000000
0.996155 0.000000 0.000000
0.996155 0.000000 0.000000
0.996155 0.000000 0.000000
0.996155 0.000000 0.000000
0.996155 0.000000 0.000000
0.996155 0.000000 0.000000
0.996155 0.000000 0.000000
0.000000 0.432006 0.061736
0.000000 0.427312 0.055008
0.000000 0.422529 0.040827
0.000000 0.417686 0.026664
0.000000 0.413460 0.014062
0.009452 0.408914 0.010526
0.024501 0.403803 0.008745
0.043571 0.396916 0.006626
0.067667 0.388426 0.004046
0.097436 0.377758 0.001053
0.135390 0.365836 0.000000
0.185097 0.351599 0.000000
0.243996 0.335261 0.000000
0.308786 0.316958 0.000000
0.372024 0.289138 0.000056
0.438151 0.265894 0.000000
0.505782 0.246395 0.000000
0.573957 0.229309 0.000000
0.642616 0.209262 0.000000
0.709340 0.186962 0.000000
0.775272 0.156056 0.000000
0.838294 0.136407 0.000000
0.897559 0.109166 0.000000
0.952070 0.067859 0.000000
0.994986 0.009729 0.000000
0.996155 0.000000 0.000000
0.996155 0.000000 0.000000
0.996155 0.000000 0.000000
0.996155 0.000000 0.000000
0.996155 0.000000 0.000000
0.996155 0.000000 0.000000
0.996155 0.000000 0.000000
0.996155 0.000000 0.000000
0.000000 0.498153 0.060410
0.000000 0.493258 0.047703
0.000000 0.489029 0.035618
0.000000 0.484570 0.023408
0.000000 0.480438 0.011075
0.009856 0.476694 0.009333
0.023042 0.471777 0.007543
0.041592 0.465457 0.005164
0.063521 0.457889 0.002886
0.091725 0.448509 0.000135
0.129601 0.437150 0.000000
0.176155 0.424067 0.000000
0.234060 0.408975 0.000000
0.298980 0.392119 0.000000
0.366300 0.373033 0.000000
0.430806 0.344694 0.000093
0.497580 0.319020 0.000000
0.565846 0.297259 0.000000
0.634287 0.279455 0.000000
0.700672 0.259782 0.000000
0.767533 0.237320 0.000000
0.831480 0.214127 0.000000
0.885830 0.182127 0.000000
0.936970 0.151103 0.000000
0.985409 0.108662 0.000000
0.996155 0.045880 0.000000
0.996155 0.000000 0.000000
0.996155 0.000000 0.000000
0.996155 0.000000 0.000000
0.996155 0.000000 0.000000
0.996155 0.000000 0.000000
0.996155 0.000000 0.000000
0.996155 0.000000 0.000000
0.000000 0.564817 0.050599
0.000000 0.560515 0.037945
0.000000 0.556462 0.025730
0.000000 0.552801 0.015097
0.004063 0.548675 0.008332
0.014349 0.544985 0.007167
0.026112 0.540892 0.005866
0.042146 0.535105 0.004095
0.063572 0.528063 0.001716
0.089862 0.519813 0.000000
0.126574 0.509195 0.000000
0.171470 0.497007 0.000000
0.226187 0.482976 0.000000
0.289717 0.467125 0.000000
0.357128 0.449388 0.000000
0.424958 0.430129 0.000000
0.489680 0.407502 0.000000
0.557226 0.375148 0.000000
0.625683 0.352038 0.000000
0.691680 0.333020 0.000000
0.757774 0.315291 0.000000
0.823065 0.294876 0.000000
0.877868 0.272711 0.000000
0.924882 0.250431 0.000000
0.970573 0.203801 0.000000
0.996155 0.155513 0.000000
0.996155 0.090503 0.000000
0.996155 0.000028 0.000000
0.996155 0.000000 0.000000
0.996155 0.000000 0.000000
0.996155 0.000000 0.000000
0.996155 0.000000 0.000000
0.996155 0.000000 0.000000
0.000000 0.631920 0.033012
0.000000 0.627986 0.021887
0.000000 0.624194 0.011195
0.004494 0.620827 0.006310
0.012486 0.617538 0.005434
0.021803 0.614171 0.004437
0.033433 0.610071 0.003247
0.048006 0.605220 0.001806
0.066580 0.598824 0.000153
0.093372 0.590759 0.000000
0.127362 0.581481 0.000000
0.170947 0.569932 0.000000
0.222917 0.556790 0.000000
0.283122 0.541810 0.000000
0.348597 0.525374 0.000000
0.416483 0.506930 0.000000
0.483999 0.487434 0.000000
0.549110 0.465066 0.000000
0.616724 0.432310 0.000000
0.683008 0.408635 0.000000
0.748164 0.388865 0.000000
0.813162 0.372211 0.000000
0.868873 0.354487 0.000000
0.916473 0.334915 0.000000
0.960847 0.314682 0.000000
0.996107 0.280590 0.000000
0.996155 0.213361 0.000000
0.996155 0.139440 0.000000
0.996155 0.022426 0.000000
0.996155 0.000000 0.000000
0.996155 0.000000 0.000000
0.996155 0.000000 0.000000
0.996155 0.000000 0.000000
0.000000 0.696688 0.011782
0.002390 0.693396 0.005009
0.011326 0.690090 0.003935
0.019538 0.687320 0.003037
0.027347 0.684440 0.002242
0.035191 0.681891 0.001460
0.044957 0.678651 0.000551
0.059474 0.673775 0.000000
0.078218 0.668006 0.000000
0.102458 0.661312 0.000000
0.135002 0.652596 0.000000
0.175181 0.642725 0.000000
0.224928 0.630353 0.000000
0.281193 0.616442 0.000000
0.343625 0.600512 0.000000
0.409171 0.583385 0.000000
0.476315 0.564396 0.000000
0.543111 0.544985 0.000000
0.608099 0.522604 0.000000
0.674153 0.489898 0.000000
0.738543 0.465467 0.000000
0.802408 0.445806 0.000000
0.858897 0.428607 0.000000
0.908704 0.412737 0.000000
0.952501 0.396839 0.000000
0.985874 0.379741 0.000000
0.994265 0.348656 0.000000
0.996155 0.297044 0.000000
0.996155 0.198857 0.000000
0.996155 0.072179 0.000000
0.996155 0.000000 0.000000
0.996155 0.000000 0.000000
0.996155 0.000000 0.000000
0.017531 0.759987 0.001756
0.025482 0.757046 0.000981
0.033079 0.754154 0.000301
0.040840 0.751388 0.000000
0.048982 0.748669 0.000000
0.056881 0.745841 0.000000
0.066420 0.742997 0.000000
0.079542 0.739080 0.000000
0.097698 0.733932 0.000000
0.120558 0.727445 0.000000
0.149698 0.720361 0.000000
0.187442 0.710994 0.000000
0.232567 0.700451 0.000000
0.284930 0.687603 0.000000
0.343193 0.673524 0.000000
0.405094 0.657370 0.000000
0.469816 0.640278 0.000000
0.536273 0.621186 0.000000
0.602061 0.601527 0.000000
0.666026 0.579729 0.000000
0.728834 0.546909 0.000000
0.792058 0.522361 0.000000
0.848306 0.503216 0.000000
0.898802 0.485759 0.000000
0.942865 0.469905 0.000000
0.974285 0.455992 0.000000
0.988740 0.441194 0.000000
0.996155 0.415307 0.000000
0.996155 0.368971 0.000000
0.996155 0.284327 0.000000
0.996155 0.121453 0.000000
0.996155 0.000000 0.000000
0.996155 0.000000 0.000000
0.051416 0.821795 0.000000
0.058806 0.819636 0.000000
0.066223 0.817461 0.000000
0.074128 0.815113 0.000000
0.081367 0.812971 0.000000
0.088461 0.810862 0.000000
0.097431 0.808212 0.000000
0.109737 0.804645 0.000000
0.125815 0.800411 0.000000
0.146822 0.794896 0.000000
0.173938 0.787797 0.000000
0.207276 0.779134 0.000000
0.248053 0.768625 0.000000
0.295309 0.756683 0.000000
0.348300 0.742903 0.000000
0.406199 0.727224 0.000000
0.467187 0.711151 0.000000
0.530867 0.694120 0.000000
0.595863 0.675820 0.000000
0.660228 0.656844 0.000000
0.720644 0.636217 0.000000
0.782744 0.603646 0.000000
0.838692 0.579109 0.000000
0.889559 0.560856 0.000000
0.933568 0.544001 0.000000
0.966365 0.528199 0.000000
0.986417 0.514513 0.000000
0.996091 0.501146 0.000000
0.996155 0.477175 0.000000
0.996155 0.436621 0.000000
0.996155 0.358985 0.000000
0.996155 0.176488 0.000000
0.996155 0.000000 0.000000
0.097917 0.874572 0.000000
0.104595 0.872837 0.000000
0.111300 0.871085 0.000000
0.118157 0.869303 0.000000
0.124825 0.867647 0.000000
0.131320 0.866088 0.000000
0.139436 0.864115 0.000000
0.150664 0.861411 0.000000
0.164833 0.858006 0.000000
0.183698 0.853600 0.000000
0.207342 0.847980 0.000000
0.236654 0.841120 0.000000
0.272044 0.832485 0.000000
0.313831 0.822407 0.000000
0.361096 0.810342 0.000000
0.413557 0.796504 0.000000
0.470278 0.780725 0.000000
0.530121 0.763541 0.000000
0.592495 0.745096 0.000000
0.655608 0.726046 0.000000
0.715473 0.707538 0.000000
0.775460 0.688779 0.000000
0.829939 0.657610 0.000161
0.880479 0.632450 0.000000
0.924341 0.618213 0.000000
0.958800 0.602633 0.000000
0.984176 0.588166 0.000000
0.995178 0.575608 0.000000
0.995851 0.563054 0.000000
0.996043 0.540094 0.000000
0.996123 0.499097 0.000000
0.996155 0.426153 0.000000
0.996155 0.253030 0.000000
0.161214 0.921165 0.000000
0.167239 0.919919 0.000000
0.173072 0.918706 0.000000
0.178756 0.917540 0.000000
0.184263 0.916406 0.000000
0.189967 0.915175 0.000000
0.196735 0.913543 0.000000
0.206528 0.911183 0.000000
0.218813 0.908220 0.000000
0.234471 0.904434 0.000000
0.254698 0.900100 0.000000
0.279461 0.895198 0.000000
0.309075 0.887816 0.000000
0.344690 0.879111 0.000000
0.385628 0.869606 0.000000
0.432025 0.857485 0.000000
0.483360 0.844548 0.000000
0.538852 0.829206 0.000000
0.597313 0.812612 0.000000
0.657058 0.795623 0.000000
0.714946 0.777217 0.000000
0.774476 0.758388 0.000000
0.827888 0.739531 0.000000
0.877342 0.710894 0.008120
0.919550 0.687459 0.017510
0.955439 0.670858 0.000000
0.984625 0.660656 0.000000
0.995376 0.647907 0.000000
0.995861 0.636513 0.000000
0.995657 0.625338 0.000000
0.995258 0.603278 0.000000
0.996011 0.561723 0.000000
0.996155 0.487886 0.000000
0.233960 0.962421 0.000000
0.238878 0.960883 0.000000
0.243492 0.959706 0.000000
0.248315 0.958481 0.000000
0.252746 0.957351 0.000000
0.257194 0.956222 0.000000
0.262736 0.954806 0.000000
0.270506 0.953163 0.000000
0.280151 0.951340 0.000000
0.292730 0.948967 0.000000
0.308830 0.945934 0.000000
0.328773 0.941291 0.000000
0.353155 0.935142 0.000000
0.382330 0.928693 0.000000
0.417009 0.920948 0.000000
0.457042 0.911036 0.000000
0.502401 0.900783 0.000000
0.552051 0.888359 0.000000
0.606212 0.874295 0.000000
0.662458 0.859557 0.000000
0.717473 0.843642 0.000000
0.774257 0.827365 0.000000
0.827617 0.810327 0.000000
0.876882 0.793354 0.000000
0.917682 0.772093 0.000000
0.952847 0.749111 0.046520
0.981847 0.729652 0.002086
0.994269 0.722640 0.000000
0.996917 0.710869 0.000000
0.998311 0.701265 0.000000
0.999107 0.690131 0.000000
0.999000 0.665726 0.000000
0.996780 0.622668 0.000000
0.311005 0.990630 0.000000
0.314561 0.989739 0.000000
0.318280 0.988799 0.000000
0.321654 0.987955 0.000000
0.325443 0.986951 0.000000
0.328786 0.986106 0.000000
0.332904 0.985071 0.000000
0.338671 0.983622 0.000000
0.346497 0.981681 0.000000
0.356016 0.980052 0.000000
0.368266 0.977936 0.000000
0.383766 0.975273 0.000000
0.403408 0.971625 0.000000
0.427192 0.966779 0.000000
0.455640 0.961071 0.000000
0.489336 0.954127 0.000000
0.528484 0.945031 0.000000
0.572258 0.935008 0.000000
0.621036 0.922883 0.000000
0.672029 0.910161 0.000000
0.723254 0.896713 0.000000
0.775684 0.882710 0.000000
0.826995 0.868217 0.000000
0.877224 0.853741 0.000000
0.917102 0.838788 0.000000
0.950396 0.818621 0.000000
0.977101 0.806144 0.081145
0.989513 0.791828 0.023376
0.995566 0.783468 0.000000
0.998955 0.774147 0.000000
1.000000 0.765834 0.000000
1.000000 0.754686 0.000000
1.000000 0.730807 0.000000
0.388607 1.000000 0.000000
0.391189 1.000000 0.000000
0.393789 1.000000 0.000000
0.396369 1.000000 0.000000
0.399335 1.000000 0.000000
0.401915 1.000000 0.000000
0.404867 1.000000 0.000000
0.409369 1.000000 0.000000
0.415084 1.000000 0.000000
0.422815 1.000000 0.000000
0.432072 1.000000 0.000000
0.443992 1.000000 0.000000
0.459102 0.998945 0.000000
0.478014 0.996507 0.000000
0.500916 0.991731 0.000000
0.528348 0.986270 0.000000
0.561357 0.980285 0.000000
0.599360 0.970226 0.000000
0.641772 0.960821 0.000000
0.685944 0.950105 0.000000
0.733200 0.938533 0.000000
0.780801 0.926412 0.000000
0.829678 0.913802 0.000000
0.877750 0.901587 0.000000
0.917375 0.889375 0.000000
0.949807 0.876610 0.000000
0.974114 0.859317 0.000000
0.987099 0.847639 0.023735
0.995310 0.843828 0.000000
1.000000 0.847006 0.000000
1.000000 0.840641 0.000000
1.000000 0.834358 0.000000
1.000000 0.813762 0.000000
0.465584 1.000000 0.000000
0.467726 1.000000 0.000000
0.469504 1.000000 0.000000
0.471629 1.000000 0.000000
0.473223 1.000000 0.000000
0.475008 1.000000 0.000000
0.477485 0.999950 0.000000
0.480689 0.999731 0.000000
0.484945 0.999439 0.000000
0.490417 0.999076 0.000000
0.497672 0.998580 0.000000
0.506693 0.997967 0.000000
0.518290 0.997263 0.000000
0.532908 0.996338 0.000000
0.551268 0.995248 0.000000
0.573692 0.993287 0.000000
0.600533 0.990938 0.000000
0.632144 0.988829 0.000000
0.667547 0.984578 0.000000
0.705922 0.980553 0.000000
0.747817 0.975027 0.000000
0.791596 0.963607 0.000000
0.836307 0.950311 0.000000
0.880267 0.939302 0.000000
0.918432 0.928693 0.000000
0.949938 0.918416 0.000000
0.973746 0.908796 0.000000
0.986482 0.896938 0.007064
0.995434 0.891714 0.073128
1.000000 0.884430 0.000000
1.000000 0.887546 0.000000
1.000000 0.882150 0.000000
1.000000 0.877899 0.000000
0.542600 1.000000 0.000000
0.544339 1.000000 0.000000
0.545570 1.000000 0.000000
0.546980 1.000000 0.000000
0.548381 1.000000 0.000000
0.549783 1.000000 0.000000
0.551372 1.000000 0.000000
0.553838 1.000000 0.000000
0.556997 1.000000 0.000000
0.561383 1.000000 0.000000
0.566484 1.000000 0.000000
0.573489 1.000000 0.000000
0.582066 1.000000 0.000000
0.593245 1.000000 0.000000
0.607542 1.000000 0.000000
0.625109 1.000000 0.000000
0.646728 1.000000 0.000000
0.671284 1.000000 0.000000
0.699460 1.000000 0.000000
0.732633 1.000000 0.000000
0.766909 0.995473 0.000000
0.806745 0.981716 0.000000
0.848175 0.972067 0.000000
0.886552 0.963204 0.000000
0.920771 0.955030 0.000000
