luts/Arrow_Vibrant_Turquoise_DJI_Drone.cube
TITLE "Arrow Vibrant Turquoise - DJI Drone"
# Color Graded by VegasDavinciLinkTool
# Look: Vibrant Turquoise Lagoon & Golden Sun Pop
LUT_3D_SIZE 33
0.000000 0.000000 0.000000
0.003282 0.000032 0.000000
0.012920 0.000007 0.000000
0.034809 0.000000 0.000350
0.063378 0.000000 0.001048
0.097747 0.000000 0.002084
0.135958 0.000000 0.003471
0.177106 0.000000 0.005314
0.225162 0.000000 0.009100
0.285201 0.000000 0.018606
0.346285 0.000000 0.031501
0.396902 0.000000 0.037517
0.440290 0.000000 0.039635
0.480688 0.000000 0.040976
0.519112 0.000000 0.041719
0.556196 0.000000 0.042052
0.592094 0.000000 0.042258
0.628355 0.000000 0.042329
0.666581 0.000000 0.042227
0.704980 0.000000 0.041888
0.743279 0.000000 0.041260
0.777341 0.000000 0.039729
0.809567 0.000000 0.037621
0.840720 0.000000 0.034935
0.870486 0.000000 0.031517
0.898283 0.000000 0.027853
0.923583 0.000000 0.023308
0.945958 0.000000 0.018416
0.965099 0.000000 0.013363
0.980458 0.000000 0.008618
0.992349 0.000000 0.003699
1.000000 0.004606 0.000000
1.000000 0.014242 0.000000
0.001008 0.002316 0.000000
0.002285 0.002231 0.000000
0.012007 0.002066 0.000000
0.033207 0.001596 0.000000
0.061727 0.000912 0.000000
0.096298 0.000019 0.000000
0.134279 0.000000 0.000917
0.174847 0.000000 0.002332
0.221982 0.000000 0.005757
0.280247 0.000000 0.013360
0.340917 0.000000 0.025697
0.391607 0.000000 0.032221
0.435524 0.000000 0.034391
0.476655 0.000000 0.035807
0.515852 0.000000 0.036998
0.553696 0.000000 0.037992
0.590210 0.000000 0.038757
0.627020 0.000000 0.039311
0.665693 0.000000 0.039650
0.704461 0.000000 0.039701
0.743033 0.000000 0.039417
0.777304 0.000000 0.038135
0.809669 0.000000 0.035877
0.840955 0.000000 0.033178
0.870764 0.000000 0.030125
0.898568 0.000000 0.026658
0.923844 0.000000 0.022258
0.946200 0.000000 0.017502
0.965344 0.000000 0.012635
0.980635 0.000000 0.008033
0.992473 0.000000 0.003246
1.000000 0.006248 0.000000
1.000000 0.016604 0.000000
0.000020 0.010098 0.000000
0.002379 0.009916 0.000000
0.009597 0.009542 0.000000
0.030290 0.009902 0.000000
0.059586 0.008911 0.000000
0.093775 0.007891 0.000000
0.131251 0.006603 0.000000
0.171305 0.004939 0.000000
0.217226 0.001521 0.000000
0.270496 0.000000 0.003671
0.327071 0.000000 0.011000
0.376919 0.000000 0.015240
0.423319 0.000000 0.019134
0.466775 0.000000 0.022346
0.507799 0.000000 0.025234
0.547198 0.000000 0.027743
0.584981 0.000000 0.029746
0.623072 0.000000 0.030994
0.662930 0.000000 0.031929
0.702722 0.000000 0.032500
0.742157 0.000000 0.032676
0.777193 0.000000 0.031960
0.809977 0.000000 0.030611
0.841530 0.000000 0.028822
0.871484 0.000000 0.026213
0.899401 0.000000 0.022822
0.924724 0.000000 0.018893
0.947043 0.000000 0.014519
0.966005 0.000000 0.010665
0.981126 0.000000 0.006434
0.992714 0.000000 0.000817
1.000000 0.010872 0.000000
1.000000 0.022491 0.000000
0.001000 0.025748 0.000000
0.001792 0.025495 0.000000
0.007037 0.024861 0.000000
0.023929 0.024114 0.000000
0.055804 0.024371 0.000000
0.091148 0.024953 0.000000
0.129021 0.022443 0.000000
0.169218 0.020177 0.000000
0.215064 0.015494 0.000000
0.262473 0.010953 0.000000
0.310168 0.006769 0.000000
0.357973 0.002782 0.000000
0.406785 0.000000 0.001180
0.452676 0.000000 0.004626
0.495624 0.000000 0.007748
0.536725 0.000000 0.010550
0.576304 0.000000 0.013009
0.616504 0.000000 0.015235
0.658362 0.000000 0.017716
0.699902 0.000000 0.019755
0.740786 0.000000 0.021306
0.777041 0.000000 0.021971
0.810525 0.000000 0.021822
0.842576 0.000000 0.020974
0.872827 0.000000 0.019379
0.900807 0.000000 0.017005
0.926113 0.000000 0.014018
0.948352 0.000000 0.010944
0.967127 0.000000 0.007426
0.982034 0.000000 0.003545
0.992984 0.004220 0.000000
1.000000 0.019916 0.000000
1.000000 0.032646 0.000000
0.000047 0.051224 0.000000
0.000053 0.051040 0.000000
0.006403 0.050197 0.000000
0.019527 0.049099 0.000000
0.048032 0.048003 0.000000
0.085553 0.046654 0.000000
0.124820 0.048441 0.000000
0.166903 0.047856 0.000000
0.212781 0.041497 0.000000
0.258877 0.037151 0.000000
0.305957 0.033743 0.000000
0.352849 0.029005 0.000000
0.398711 0.023611 0.000000
0.442757 0.017885 0.000000
0.484997 0.013020 0.000000
0.526286 0.008484 0.000000
0.566985 0.004448 0.000000
0.608857 0.000983 0.000000
0.652642 0.000000 0.001911
0.696147 0.000000 0.004987
0.738916 0.000000 0.007881
0.776884 0.000000 0.009812
0.811348 0.000000 0.010920
0.844077 0.000000 0.011375
0.874744 0.000000 0.011139
0.902892 0.000000 0.010191
0.928149 0.000000 0.008531
0.950192 0.000000 0.006154
0.968468 0.000000 0.002445
0.982528 0.003884 0.000000
0.992579 0.019795 0.000000
1.000000 0.036715 0.000000
1.000000 0.045744 0.000000
0.000190 0.082319 0.000000
0.000320 0.082071 0.000000
0.000632 0.081437 0.000000
0.013017 0.080302 0.000000
0.040459 0.078948 0.000000
0.077007 0.077640 0.000000
0.117889 0.074857 0.000000
0.161806 0.075872 0.000000
0.207268 0.076952 0.000000
0.253504 0.075784 0.000000
0.300941 0.069255 0.000000
0.348122 0.065345 0.000000
0.394242 0.060724 0.000000
0.438494 0.055586 0.000000
0.480901 0.050195 0.000000
0.522002 0.044962 0.000000
0.562133 0.040097 0.000000
0.603369 0.035027 0.000000
0.647438 0.028071 0.000000
0.692012 0.019799 0.000000
0.736178 0.012973 0.000000
0.775260 0.008195 0.000000
0.811078 0.004476 0.000000
0.845062 0.001236 0.000000
0.876800 0.000000 0.001061
0.905533 0.000000 0.002186
0.930816 0.000000 0.001789
0.952490 0.000096 0.000000
0.969425 0.007683 0.000000
0.982059 0.024704 0.000000
0.991777 0.045172 0.000000
0.999596 0.057308 0.000000
1.000000 0.064428 0.000000
0.000010 0.116273 0.000000
0.000012 0.116101 0.000000
0.002521 0.115511 0.000000
0.009671 0.114533 0.000000
0.034872 0.113212 0.000000
0.068730 0.111712 0.000000
0.109654 0.110483 0.000000
0.153186 0.107063 0.000000
0.198579 0.106856 0.000000
0.245464 0.108863 0.000000
0.293870 0.109713 0.000000
0.341900 0.108817 0.000000
0.388546 0.106429 0.000000
0.433327 0.097626 0.000000
0.476083 0.093550 0.000000
0.517294 0.089236 0.000000
0.557528 0.084694 0.000000
0.598801 0.079384 0.000000
0.643068 0.073272 0.000000
0.687857 0.066687 0.000000
0.732324 0.059254 0.000000
0.770980 0.051064 0.000000
0.807940 0.043837 0.000000
0.842863 0.037194 0.000000
0.875185 0.031801 0.000000
0.904128 0.028815 0.000000
0.929297 0.029640 0.000000
0.950518 0.034770 0.000000
0.967419 0.044776 0.000000
0.980588 0.059187 0.000000
0.990711 0.076049 0.000000
0.999016 0.081236 0.000000
1.000000 0.085390 0.000000
0.000096 0.152284 0.000000
0.000160 0.152065 0.000000
0.000330 0.151458 0.000000
0.004703 0.150484 0.000000
0.026784 0.149049 0.000000
0.062794 0.147611 0.000000
0.101254 0.146776 0.000000
0.144006 0.146029 0.000000
0.189119 0.142458 0.000000
0.235933 0.141045 0.000000
0.284566 0.142289 0.000000
0.333642 0.144576 0.000000
0.381360 0.145370 0.000000
0.426923 0.144442 0.000000
0.470246 0.142615 0.000000
0.511769 0.140084 0.000000
0.552138 0.136992 0.000000
0.593573 0.126033 0.000000
0.638036 0.121192 0.000000
0.683106 0.115510 0.000000
0.726473 0.108873 0.000000
0.765354 0.101138 0.000000
0.802820 0.093558 0.000000
0.838189 0.086726 0.000000
0.870946 0.081005 0.000000
0.900388 0.077453 0.000000
0.926010 0.077190 0.000000
0.947665 0.081037 0.000000
0.965113 0.087891 0.000000
0.978849 0.097062 0.000000
0.989438 0.108724 0.000000
0.998300 0.107683 0.000000
1.000000 0.108782 0.000000
0.000000 0.188721 0.000000
0.000000 0.188538 0.000000
0.001736 0.187924 0.000000
0.006584 0.186906 0.000000
0.019701 0.185977 0.000000
0.054135 0.185290 0.000000
0.092041 0.184602 0.000000
0.134506 0.183881 0.000000
0.179447 0.183107 0.000000
0.225748 0.179644 0.000000
0.274047 0.177181 0.000000
0.323688 0.177572 0.000000
0.372385 0.179363 0.000000
0.418993 0.181403 0.000000
0.463164 0.182153 0.000000
0.505207 0.181890 0.000000
0.545975 0.180660 0.000000
0.587628 0.178562 0.000000
0.632449 0.175570 0.000000
0.677836 0.172004 0.000000
0.719641 0.157292 0.000000
0.759138 0.150213 0.000000
0.797092 0.143094 0.000000
0.832947 0.136202 0.000000
0.866174 0.130397 0.000000
0.896073 0.126458 0.000000
0.922202 0.124926 0.000000
0.944483 0.125993 0.000000
0.962559 0.129247 0.000000
0.976882 0.134461 0.000000
0.988329 0.138191 0.000000
0.997461 0.135462 0.000000
1.000000 0.133665 0.000000
0.000408 0.225611 0.000000
0.000491 0.225496 0.000000
0.000709 0.225225 0.000000
0.002714 0.224958 0.000000
0.016823 0.224535 0.000000
0.039934 0.224029 0.000000
0.081410 0.223483 0.000000
0.124076 0.222881 0.000000
0.169221 0.222222 0.000000
0.215401 0.221269 0.000000
0.263170 0.220578 0.000000
0.312758 0.214372 0.000000
0.362131 0.213890 0.000000
0.409821 0.215051 0.000000
0.454914 0.216853 0.000000
0.497670 0.218658 0.000000
0.538923 0.219473 0.000000
0.581004 0.219484 0.000000
0.626263 0.218626 0.000000
0.671064 0.216415 0.000000
0.712345 0.211540 0.000000
0.752509 0.205835 0.000000
0.790983 0.199671 0.000000
0.827314 0.183246 0.000000
0.860983 0.177587 0.000000
0.891387 0.172901 0.000000
0.918088 0.169932 0.000000
0.941049 0.168769 0.000000
0.959802 0.168934 0.000000
0.974754 0.170597 0.000000
0.987020 0.168544 0.000000
0.996501 0.164109 0.000000
1.000000 0.159321 0.000000
0.000000 0.265169 0.000000
0.000000 0.265150 0.000000
0.000750 0.265037 0.000000
0.002433 0.264817 0.000000
0.004402 0.264528 0.000000
0.031979 0.264105 0.000000
0.068039 0.263574 0.000000
0.111652 0.262994 0.000000
0.158020 0.262342 0.000000
0.204861 0.261632 0.000000
0.252270 0.260717 0.000000
0.301625 0.260025 0.000000
0.351101 0.253395 0.000000
0.399445 0.251955 0.000000
0.445656 0.252186 0.000000
0.489167 0.253234 0.000000
0.530998 0.254739 0.000000
0.573633 0.256533 0.000000
0.619517 0.257498 0.000000
0.662634 0.255670 0.000000
0.704718 0.252319 0.000000
0.745595 0.248035 0.000000
0.784593 0.243190 0.000000
0.821415 0.238003 0.000000
0.855547 0.232739 0.000000
0.886476 0.227654 0.000000
0.913840 0.211695 0.000000
0.937493 0.208411 0.000000
0.956886 0.206280 0.000000
0.972471 0.205454 0.000000
0.985669 0.197884 0.000000
0.995523 0.191714 0.000000
1.000000 0.185452 0.000000
0.000101 0.306242 0.000000
0.000120 0.306210 0.000000
0.000172 0.306116 0.000000
0.000244 0.305967 0.000000
0.007210 0.305686 0.000000
0.022164 0.305282 0.000000
0.053865 0.304817 0.000000
0.098640 0.304293 0.000000
0.144933 0.303723 0.000000
0.192794 0.303078 0.000000
0.241063 0.302335 0.000000
0.290063 0.301365 0.000000
0.339866 0.300533 0.000000
0.388540 0.293720 0.000000
0.435480 0.291283 0.000000
0.479967 0.290634 0.000000
0.522406 0.290938 0.000000
0.565613 0.291847 0.000000
0.610364 0.292074 0.000000
0.653811 0.291473 0.000000
0.696818 0.289667 0.000000
0.738497 0.286749 0.000000
0.778082 0.283037 0.000000
0.815427 0.278604 0.000000
0.850034 0.273700 0.000000
0.881530 0.268396 0.000000
0.909537 0.263127 0.000000
0.933823 0.258224 0.000000
0.953884 0.253811 0.000000
0.970502 0.248188 0.000000
0.984145 0.227152 0.000000
0.994464 0.218913 0.000000
1.000000 0.211503 0.000000
0.000000 0.347324 0.000000
0.000000 0.347304 0.000000
0.000000 0.347245 0.000000
0.000903 0.347062 0.000000
0.002042 0.346815 0.000000
0.007298 0.346504 0.000000
0.043645 0.346092 0.000000
0.082437 0.345619 0.000000
0.130676 0.345079 0.000000
0.179601 0.344462 0.000000
0.228700 0.343756 0.000000
0.278356 0.342931 0.000000
0.328244 0.341907 0.000000
0.377413 0.340942 0.000000
0.424744 0.334284 0.000000
0.470285 0.330956 0.000000
0.513248 0.329417 0.000000
0.556124 0.328166 0.000000
0.600090 0.326074 0.000000
0.644627 0.324577 0.000000
0.688745 0.323509 0.000000
0.731301 0.321986 0.000000
0.771563 0.319394 0.000000
0.809510 0.315735 0.000000
0.844635 0.311256 0.000000
0.876690 0.305967 0.000000
0.905311 0.300293 0.000000
0.930147 0.294322 0.000000
0.950936 0.287581 0.000000
0.968528 0.277886 0.000000
0.982492 0.269164 0.000000
0.993318 0.259215 0.000000
1.000000 0.250752 0.000000
0.000002 0.387848 0.000000
0.000002 0.387819 0.000000
0.000004 0.387730 0.000000
0.000006 0.387590 0.000000
0.000170 0.387401 0.000000
0.009639 0.387104 0.000000
0.021717 0.386757 0.000000
0.066973 0.386346 0.000000
0.114834 0.385877 0.000000
0.164759 0.385298 0.000000
0.214881 0.384617 0.000000
0.265553 0.383829 0.000000
0.316248 0.382887 0.000000
0.365904 0.381772 0.000000
0.413772 0.380649 0.000000
0.459772 0.374378 0.000000
0.502776 0.369472 0.000000
0.544561 0.364790 0.000000
0.589332 0.361075 0.000000
0.635068 0.358183 0.000000
0.680436 0.355876 0.000000
0.724076 0.353833 0.000000
0.765191 0.351909 0.000000
0.803807 0.349079 0.000000
0.839461 0.345104 0.000000
0.872038 0.340131 0.000000
0.901282 0.334505 0.000000
0.926495 0.327975 0.000000
0.948236 0.318759 0.000000
0.966387 0.307772 0.000000
0.980868 0.297187 0.000000
0.992076 0.286198 0.000000
1.000000 0.277140 0.000000
0.000000 0.427463 0.000000
0.000000 0.427443 0.000000
0.000001 0.427387 0.000000
0.000196 0.427279 0.000000
0.001100 0.427078 0.000000
0.002076 0.426831 0.000000
0.017493 0.426516 0.000000
0.051880 0.426132 0.000000
0.095890 0.425671 0.000000
0.149191 0.425138 0.000000
0.200045 0.424491 0.000000
0.251435 0.423735 0.000000
0.303541 0.422852 0.000000
0.353853 0.421717 0.000000
0.402506 0.420421 0.000000
0.447611 0.417833 0.000000
0.489966 0.414648 0.000000
0.532633 0.402935 0.000000
0.578111 0.397007 0.000000
0.625092 0.392341 0.000000
0.671896 0.388513 0.000000
0.716808 0.385220 0.000000
0.758998 0.382119 0.000000
0.798353 0.379036 0.000000
0.834591 0.375632 0.000000
0.867654 0.371078 0.000000
0.897337 0.365584 0.000000
0.923360 0.357605 0.000000
0.945684 0.347604 0.000000
0.964112 0.336912 0.000000
0.979191 0.324603 0.000000
0.990773 0.312632 0.000000
0.999697 0.302211 0.000000
0.000003 0.465810 0.000000
0.000006 0.465786 0.000000
0.000013 0.465716 0.000000
0.000024 0.465601 0.000000
0.000039 0.465449 0.000000
0.002212 0.465240 0.000000
0.008015 0.464953 0.000000
0.024938 0.464622 0.000000
0.078565 0.464204 0.000000
0.130005 0.463704 0.000000
0.184106 0.463103 0.000000
0.236139 0.462342 0.000000
0.288969 0.461461 0.000000
0.340553 0.459822 0.000000
0.388451 0.456863 0.000000
0.433691 0.453652 0.000000
0.476719 0.450347 0.000000
0.520376 0.446838 0.000000
0.566534 0.434380 0.000000
0.614752 0.427380 0.000000
0.663056 0.421642 0.000000
0.709462 0.416788 0.000000
0.752881 0.412367 0.000000
0.793119 0.408054 0.000000
0.830013 0.403628 0.000000
0.863667 0.398891 0.000000
0.893947 0.392933 0.000000
0.920466 0.384573 0.000000
0.943023 0.375038 0.000000
0.961925 0.363993 0.000000
0.977421 0.351472 0.000000
0.989378 0.338487 0.000000
0.998772 0.326246 0.000000
0.000004 0.503070 0.000000
0.000004 0.503053 0.000000
0.000005 0.503003 0.000000
0.000006 0.502922 0.000000
0.000247 0.502782 0.000000
0.000724 0.502584 0.000000
0.001228 0.502353 0.000000
0.025439 0.502021 0.000000
0.053721 0.501648 0.000000
0.108903 0.501123 0.000000
0.165861 0.500517 0.000000
0.219390 0.499013 0.000000
0.271642 0.496601 0.000000
0.323779 0.493935 0.000000
0.373145 0.491148 0.000000
0.419440 0.488136 0.000000
0.463268 0.484938 0.000000
0.507717 0.481384 0.000000
0.554543 0.477452 0.000000
0.603868 0.463883 0.000000
0.653663 0.455967 0.000000
0.701757 0.449231 0.000000
0.746627 0.443236 0.000000
0.787977 0.437395 0.000000
0.825761 0.431519 0.000000
0.860180 0.425276 0.000000
0.890823 0.418493 0.000000
0.917500 0.410524 0.000000
0.940369 0.401013 0.000000
0.959757 0.389589 0.000000
0.975596 0.377171 0.000000
0.987906 0.364030 0.000000
0.997775 0.349700 0.000000
0.000001 0.541732 0.000000
0.000001 0.541720 0.000000
0.000017 0.541663 0.000000
0.000046 0.541570 0.000000
0.000084 0.541445 0.000000
0.000133 0.541291 0.000000
0.002783 0.540973 0.000000
0.005887 0.540604 0.000000
0.039840 0.539488 0.000000
0.088210 0.538084 0.000000
0.142091 0.536265 0.000000
0.199029 0.534124 0.000000
0.252140 0.531753 0.000000
0.305008 0.529185 0.000000
0.356279 0.526436 0.000000
0.404126 0.523554 0.000000
0.448887 0.520458 0.000000
0.494279 0.516870 0.000000
0.541762 0.512813 0.000000
0.592010 0.508123 0.000000
0.643413 0.492842 0.000000
0.693354 0.483702 0.000000
0.740005 0.475578 0.000000
0.782730 0.467987 0.000000
0.821524 0.460492 0.000000
0.856646 0.453049 0.000000
0.887572 0.444839 0.000000
0.914541 0.435982 0.000000
0.937849 0.426206 0.000000
0.957493 0.415014 0.000000
0.973477 0.402406 0.000000
0.986386 0.389221 0.000000
0.996656 0.374716 0.000000
0.000010 0.578629 0.000000
0.000011 0.578616 0.000000
0.000013 0.578574 0.000000
0.000017 0.578508 0.000000
0.000058 0.578399 0.000000
0.000202 0.578225 0.000000
0.000375 0.578021 0.000000
0.006170 0.577597 0.000000
0.018189 0.576970 0.000000
0.056509 0.575857 0.000000
0.115809 0.574147 0.000000
0.172918 0.572175 0.000000
0.229543 0.569951 0.000000
0.282823 0.567543 0.000000
0.335581 0.564888 0.000000
0.385538 0.562054 0.000000
0.432030 0.559049 0.000000
0.478571 0.555599 0.000000
0.527021 0.551554 0.000000
0.578208 0.546741 0.000000
0.631385 0.540994 0.000000
0.683417 0.523933 0.000000
0.732203 0.513193 0.000000
0.776659 0.503323 0.000000
0.816877 0.493975 0.000000
0.852640 0.484454 0.000000
0.884110 0.474428 0.000000
0.911516 0.463974 0.000000
0.935078 0.452990 0.000000
0.955011 0.441737 0.000000
0.971290 0.429169 0.000000
0.984724 0.415627 0.000000
0.995355 0.401296 0.000000
0.000007 0.618545 0.000000
0.000010 0.618529 0.000000
0.000021 0.618483 0.000000
0.000038 0.618407 0.000000
0.000061 0.618303 0.000000
0.000090 0.618176 0.000000
0.000890 0.617940 0.000000
0.001914 0.617657 0.000000
0.011240 0.617116 0.000000
0.038530 0.616220 0.000000
0.080117 0.615036 0.000000
0.142891 0.613260 0.000000
0.200876 0.611220 0.000000
0.257561 0.608962 0.000000
0.311561 0.606473 0.000000
0.363392 0.603740 0.000000
0.412487 0.600786 0.000000
0.460252 0.597485 0.000000
0.510000 0.593499 0.000000
0.562385 0.588790 0.000000
0.617240 0.583026 0.000000
0.671455 0.576078 0.000000
0.722806 0.557091 0.000000
0.769558 0.544510 0.000000
0.811350 0.532456 0.000000
0.848198 0.520376 0.000000
0.880389 0.508157 0.000000
0.908248 0.495725 0.000000
0.932127 0.483070 0.000000
0.952356 0.470260 0.000000
0.969089 0.456892 0.000000
0.982850 0.443413 0.000000
0.993843 0.429202 0.000000
0.000006 0.660273 0.000000
0.000006 0.660262 0.000000
0.000006 0.660233 0.000000
0.000013 0.660179 0.000000
0.000062 0.660070 0.000000
0.000125 0.659935 0.000000
0.000199 0.659775 0.000000
0.001883 0.659500 0.000000
0.004323 0.659157 0.000000
0.019646 0.658500 0.000000
0.056033 0.657503 0.000000
0.104083 0.656179 0.000000
0.168460 0.654318 0.000000
0.226196 0.652275 0.000000
0.283548 0.649985 0.000000
0.337445 0.647491 0.000000
0.389008 0.644677 0.000000
0.438784 0.641594 0.000000
0.490240 0.637891 0.000000
0.543987 0.633373 0.000000
0.600316 0.627949 0.000000
0.657036 0.621262 0.000000
0.711206 0.613194 0.000000
0.760769 0.592178 0.000000
0.804508 0.576883 0.000000
0.842885 0.561853 0.000000
0.876154 0.546942 0.000000
0.904709 0.532082 0.000000
0.929032 0.517306 0.000000
0.949440 0.502073 0.000000
0.966786 0.487189 0.000000
0.980817 0.472550 0.000000
0.992116 0.458388 0.000000
0.000012 0.702618 0.000000
0.000013 0.702608 0.000000
0.000016 0.702579 0.000000
0.000020 0.702532 0.000000
0.000025 0.702468 0.000000
0.000097 0.702344 0.000000
0.000201 0.702187 0.000000
0.000320 0.702007 0.000000
0.003172 0.701683 0.000000
0.006768 0.701303 0.000000
0.032386 0.700527 0.000000
0.070345 0.699547 0.000000
0.125642 0.698123 0.000000
0.191865 0.696270 0.000000
0.248787 0.694243 0.000000
0.307178 0.691930 0.000000
0.360583 0.689479 0.000000
0.413038 0.686579 0.000000
0.467134 0.683116 0.000000
0.522677 0.678939 0.000000
0.580336 0.673897 0.000000
0.639854 0.667771 0.000000
0.696639 0.659902 0.000000
0.748824 0.649946 0.000000
0.795787 0.626935 0.000000
0.836310 0.609191 0.000000
0.871161 0.591553 0.000000
0.900826 0.573907 0.000000
0.925899 0.556380 0.000000
0.946719 0.538747 0.000000
0.964372 0.521902 0.000000
0.978624 0.505496 0.000000
0.990174 0.489666 0.000000
0.000013 0.744421 0.000000
0.000014 0.744412 0.000000
0.000018 0.744386 0.000000
0.000024 0.744344 0.000000
0.000034 0.744286 0.000000
0.000045 0.744213 0.000000
0.000153 0.744074 0.000000
0.000286 0.743913 0.000000
0.000730 0.743721 0.000000
0.004776 0.743368 0.000000
0.008800 0.742995 0.000000
0.042531 0.742128 0.000000
0.077972 0.741225 0.000000
0.143591 0.739680 0.000000
0.210162 0.737829 0.000000
0.269231 0.735815 0.000000
0.326579 0.733570 0.000000
0.382317 0.731089 0.000000
0.439320 0.727995 0.000000
0.497459 0.724094 0.000000
0.557230 0.719297 0.000000
0.618399 0.713326 0.000000
0.678295 0.706048 0.000000
0.734030 0.697090 0.000000
0.784436 0.685679 0.000000
0.827866 0.660795 0.000000
0.865116 0.640752 0.000000
0.896345 0.620671 0.000000
0.922243 0.600476 0.000000
0.943977 0.580896 0.000000
0.961939 0.561658 0.000000
0.976386 0.543120 0.000000
0.988060 0.525375 0.000000
0.000012 0.784983 0.000000
0.000014 0.784976 0.000000
0.000019 0.784954 0.000000
0.000027 0.784917 0.000000
0.000038 0.784867 0.000000
0.000052 0.784805 0.000000
0.000108 0.784709 0.000000
0.000232 0.784568 0.000000
0.000371 0.784412 0.000000
0.002415 0.784167 0.000000
0.006112 0.783845 0.000000
0.016103 0.783374 0.000000
0.043923 0.782651 0.000000
0.087282 0.781644 0.000000
0.158724 0.780004 0.000000
0.223644 0.778149 0.000000
0.284004 0.776106 0.000000
0.344372 0.773662 0.000000
0.405425 0.770735 0.000000
0.466351 0.767001 0.000000
0.529374 0.762810 0.000000
0.594065 0.757678 0.000000
0.657944 0.751239 0.000000
0.717765 0.743313 0.000000
0.771923 0.733250 0.000000
0.819844 0.720482 0.000000
0.859611 0.693962 0.000000
0.892703 0.672023 0.000000
0.919520 0.649930 0.000000
0.941189 0.627874 0.000000
0.959600 0.606573 0.000000
0.974260 0.585851 0.000000
0.985895 0.565999 0.000000
0.000013 0.822534 0.000000
0.000015 0.822528 0.000000
0.000019 0.822511 0.000000
0.000027 0.822484 0.000000
0.000036 0.822447 0.000000
0.000049 0.822400 0.000000
0.000079 0.822335 0.000000
0.000177 0.822228 0.000000
0.000289 0.822108 0.000000
0.000890 0.821951 0.000000
0.003183 0.821699 0.000000
0.005501 0.821434 0.000000
0.016922 0.820901 0.000000
0.030771 0.820392 0.000000
0.093893 0.819095 0.000000
0.166831 0.817425 0.000000
0.231088 0.815523 0.000000
0.296046 0.813315 0.000000
0.363021 0.810854 0.000000
0.430852 0.808064 0.000000
0.496576 0.804382 0.000000
0.564535 0.799773 0.000000
0.632523 0.794066 0.000000
0.696753 0.786953 0.000000
0.754602 0.777868 0.000000
0.807045 0.766988 0.000000
0.852471 0.753259 0.000000
0.890128 0.736690 0.000000
0.918815 0.703349 0.000000
0.941778 0.679897 0.000000
0.959657 0.656565 0.000000
0.973415 0.633549 0.000000
0.983968 0.612000 0.000000
0.000014 0.856608 0.000000
0.000015 0.856604 0.000000
0.000018 0.856592 0.000000
0.000023 0.856572 0.000000
0.000029 0.856545 0.000000
0.000038 0.856510 0.000000
0.000066 0.856458 0.000000
0.000132 0.856378 0.000000
0.000208 0.856287 0.000000
0.000382 0.856175 0.000000
0.001041 0.855987 0.000000
0.001705 0.855807 0.000000
0.007179 0.855472 0.000000
0.015547 0.855050 0.000000
0.036242 0.854488 0.000000
0.103522 0.853156 0.000000
0.168976 0.851653 0.000000
0.235814 0.850064 0.000000
0.310680 0.848270 0.000000
0.384019 0.845880 0.000000
0.457759 0.842863 0.000000
0.526995 0.838504 0.000000
0.599765 0.833633 0.000000
0.669836 0.827628 0.000000
0.733231 0.820212 0.000000
0.790378 0.811193 0.000000
0.840881 0.799761 0.000000
0.883366 0.785357 0.000000
0.917480 0.768018 0.000000
0.942328 0.734612 0.000000
0.961387 0.710278 0.000000
0.975690 0.685992 0.000000
0.985446 0.663510 0.000000
0.000011 0.886925 0.000000
0.000012 0.886922 0.000000
0.000013 0.886914 0.000000
0.000015 0.886901 0.000000
0.000018 0.886883 0.000000
0.000025 0.886858 0.000000
0.000060 0.886801 0.000000
0.000101 0.886742 0.000000
0.000146 0.886680 0.000000
0.000229 0.886602 0.000000
0.000433 0.886465 0.000000
0.000647 0.886331 0.000000
0.002490 0.886147 0.000000
0.010003 0.885790 0.000000
0.017288 0.885448 0.000000
0.049292 0.884788 0.000000
0.106944 0.883900 0.000000
0.168018 0.883125 0.000000
0.241777 0.881821 0.000000
0.325997 0.880061 0.000000
0.405343 0.877692 0.000000
0.484995 0.874674 0.000000
0.559442 0.870723 0.000000
0.635926 0.865808 0.000000
0.707176 0.859738 0.000000
