luts/Arrow_Vibrant_Turquoise_Sony_A7.cube
TITLE "Arrow Vibrant Turquoise - Sony A7 IV/S3"
# Color Graded by VegasDavinciLinkTool
# Look: Vibrant Turquoise Lagoon & Golden Sun Pop
LUT_3D_SIZE 5
0.015044 0.015031 0.013368
0.109368 0.000312 0.000000
0.550636 0.000000 0.000000
0.995210 0.000000 0.000000
0.996155 0.000000 0.000000
0.000000 0.148176 0.030877
0.107209 0.113713 0.001921
0.532648 0.004087 0.000000
0.995210 0.000000 0.000000
0.996155 0.000000 0.000000
0.000000 0.631920 0.033012
0.066580 0.598824 0.000153
0.483999 0.487434 0.000000
0.960847 0.314682 0.000000
0.996155 0.000000 0.000000
0.388607 1.000000 0.000000
0.415084 1.000000 0.000000
0.561357 0.980285 0.000000
0.917375 0.889375 0.000000
1.000000 0.813762 0.000000
0.919577 1.000000 0.000000
0.920936 1.000000 0.000000
0.930505 1.000000 0.000000
0.977372 0.997928 0.000000
1.000000 0.980616 0.000000
0.010245 0.016636 0.105043
0.111244 0.000000 0.082621
0.561340 0.000000 0.000000
0.995210 0.000000 0.000000
0.996155 0.000000 0.000000
0.000000 0.145186 0.128315
0.107086 0.107236 0.100065
0.536552 0.000236 0.000000
0.995210 0.000000 0.000000
0.996155 0.000000 0.000000
0.000000 0.632563 0.116570
0.064595 0.599262 0.076441
0.482866 0.487031 0.018951
0.961183 0.311738 0.000000
0.996155 0.000000 0.000000
0.388302 1.000000 0.000000
0.414727 1.000000 0.000000
0.561075 0.980265 0.000000
0.917390 0.889140 0.000000
1.000000 0.813509 0.000000
0.919577 1.000000 0.000000
0.920936 1.000000 0.000000
0.930505 1.000000 0.000000
0.977372 0.997928 0.000000
1.000000 0.980616 0.000000
0.000000 0.035784 0.481745
0.092405 0.000301 0.456812
0.553970 0.000000 0.355887
0.995354 0.000000 0.000000
0.996155 0.000000 0.000000
0.000000 0.099001 0.494430
0.103191 0.032604 0.460856
0.554406 0.000000 0.358223
0.995370 0.000000 0.000000
0.996155 0.000000 0.000000
0.000000 0.645820 0.595616
0.067729 0.610277 0.568180
0.478614 0.479200 0.467120
0.968909 0.252895 0.000000
0.996155 0.000000 0.000000
0.358330 1.000000 0.449084
0.384176 1.000000 0.443271
0.529114 0.995539 0.411427
0.916085 0.898027 0.297245
1.000000 0.811963 0.000000
0.919577 1.000000 0.000000
0.920711 1.000000 0.000000
0.930283 1.000000 0.000000
0.977372 0.997928 0.000000
1.000000 0.980616 0.000000
0.000000 0.063881 0.901299
0.000000 0.063876 0.901136
0.508233 0.000000 0.787659
0.995274 0.000000 0.672504
0.996155 0.000000 0.000000
0.000000 0.063876 0.901136
0.000000 0.063876 0.901136
0.512904 0.000000 0.786541
0.995290 0.000000 0.672424
0.996155 0.000000 0.000000
0.000000 0.540360 1.000000
0.000000 0.458917 0.975963
0.484740 0.215193 0.851590
0.995242 0.000000 0.704838
0.996155 0.000000 0.000000
0.330051 1.000000 0.986267
0.359848 1.000000 0.982750
0.531678 1.000000 0.961380
0.915260 0.901544 0.874461
1.000000 0.764241 0.000000
0.904224 1.000000 0.856280
0.905476 1.000000 0.856023
0.916304 1.000000 0.853278
0.971098 1.000000 0.838891
1.000000 1.000000 0.784222
0.000000 0.070525 1.000000
0.000000 0.070525 1.000000
0.000000 0.070525 1.000000
0.988579 0.000000 0.799355
0.996155 0.000000 0.772935
0.000000 0.070525 1.000000
0.000000 0.070525 1.000000
0.000000 0.070525 1.000000
0.988804 0.000000 0.799290
0.996155 0.000000 0.772935
0.000000 0.070525 1.000000
0.000000 0.070525 1.000000
0.000000 0.070525 1.000000
0.990549 0.000000 0.798901
0.996155 0.000000 0.772676
0.011766 0.977444 0.993276
0.011128 0.968246 0.993641
0.226622 0.855433 0.995535
0.912572 0.679165 0.954665
0.996155 0.341789 0.886621
0.890644 1.000000 0.981809
0.892078 1.000000 0.981791
0.903663 1.000000 0.981646
0.969800 1.000000 0.980817
1.000000 1.000000 0.976094
