luts/Arrow_Vibrant_Turquoise_Sony_A7.cube
TITLE "Arrow Vibrant Turquoise - Sony A7 IV/S3"
# Color Graded by VegasDavinciLinkTool
# Look: Vibrant Turquoise Lagoon & Golden Sun Pop
LUT_3D_SIZE 9
0.015044 0.015031 0.013368
0.042993 0.001725 0.003089
0.109368 0.000312 0.000000
0.280927 0.000000 0.000000
0.550636 0.000000 0.000000
0.841091 0.000000 0.000000
0.995210 0.000000 0.000000
0.996155 0.000000 0.000000
0.996155 0.000000 0.000000
0.003165 0.056071 0.015424
0.042343 0.045534 0.009577
0.114738 0.018053 0.000000
0.282164 0.000193 0.000000
0.544720 0.000000 0.000000
0.841694 0.000000 0.000000
0.995210 0.000000 0.000000
0.996155 0.000000 0.000000
0.996155 0.000000 0.000000
0.000000 0.148176 0.030877
0.021781 0.136364 0.014482
0.107209 0.113713 0.001921
0.275997 0.069564 0.000000
0.532648 0.004087 0.000000
0.832051 0.000000 0.000000
0.995210 0.000000 0.000000
0.996155 0.000000 0.000000
0.996155 0.000000 0.000000
0.000000 0.365347 0.056247
0.000000 0.346433 0.013467
0.074478 0.319309 0.004887
0.254889 0.263128 0.000000
0.513353 0.185155 0.000000
0.781588 0.098623 0.000000
0.995098 0.000000 0.000000
0.996155 0.000000 0.000000
0.996155 0.000000 0.000000
0.000000 0.631920 0.033012
0.012486 0.617538 0.005434
0.066580 0.598824 0.000153
0.222917 0.556790 0.000000
0.483999 0.487434 0.000000
0.748164 0.388865 0.000000
0.960847 0.314682 0.000000
0.996155 0.022426 0.000000
0.996155 0.000000 0.000000
0.097917 0.874572 0.000000
0.124825 0.867647 0.000000
0.164833 0.858006 0.000000
0.272044 0.832485 0.000000
0.470278 0.780725 0.000000
0.715473 0.707538 0.000000
0.924341 0.618213 0.000000
0.995851 0.563054 0.000000
0.996155 0.253030 0.000000
0.388607 1.000000 0.000000
0.399335 1.000000 0.000000
0.415084 1.000000 0.000000
0.459102 0.998945 0.000000
0.561357 0.980285 0.000000
0.733200 0.938533 0.000000
0.917375 0.889375 0.000000
0.995310 0.843828 0.000000
1.000000 0.813762 0.000000
0.690821 1.000000 0.000000
0.693412 1.000000 0.000000
0.697757 1.000000 0.000000
0.710498 1.000000 0.000000
0.744306 1.000000 0.000000
0.823888 0.992452 0.000000
0.934913 0.980222 0.000000
0.997936 0.962650 0.000000
1.000000 0.948759 0.000000
0.919577 1.000000 0.000000
0.920265 1.000000 0.000000
0.920936 1.000000 0.000000
0.923443 1.000000 0.000000
0.930505 1.000000 0.000000
0.948175 1.000000 0.000000
0.977372 0.997928 0.000000
1.000000 0.988083 0.000000
1.000000 0.980616 0.000000
0.013822 0.015149 0.040752
0.043310 0.006331 0.033674
0.112615 0.000000 0.008492
0.289922 0.000000 0.000000
0.555762 0.000000 0.000000
0.841091 0.000000 0.000000
0.995210 0.000000 0.000000
0.996155 0.000000 0.000000
0.996155 0.000000 0.000000
0.004795 0.054374 0.047545
0.042607 0.042552 0.038998
0.111503 0.004489 0.005437
0.280475 0.000038 0.000000
0.550621 0.000000 0.000000
0.841694 0.000000 0.000000
0.995210 0.000000 0.000000
0.996155 0.000000 0.000000
0.996155 0.000000 0.000000
0.004916 0.145427 0.058821
0.021714 0.133611 0.041432
0.107424 0.111056 0.028618
0.273934 0.057777 0.000000
0.527736 0.004148 0.000000
0.832878 0.000000 0.000000
0.995210 0.000000 0.000000
0.996155 0.000000 0.000000
0.996155 0.000000 0.000000
0.000000 0.364004 0.077999
0.000000 0.344971 0.036735
0.074197 0.317595 0.025555
0.254161 0.261399 0.004544
0.512981 0.183494 0.000000
0.781874 0.096830 0.000000
0.995098 0.000000 0.000000
0.996155 0.000000 0.000000
0.996155 0.000000 0.000000
0.000000 0.631920 0.047458
0.012033 0.617460 0.017930
0.066064 0.598449 0.010910
0.215934 0.556166 0.000000
0.484151 0.486521 0.000000
0.748021 0.388049 0.000000
0.960959 0.313696 0.000000
0.996155 0.020198 0.000000
0.996155 0.000000 0.000000
0.097611 0.874651 0.000000
0.124550 0.867584 0.000000
0.164523 0.857942 0.000000
0.272044 0.832485 0.000000
0.470321 0.780563 0.000000
0.715499 0.707220 0.000000
0.924388 0.617919 0.000000
0.995851 0.562909 0.000000
0.996155 0.251343 0.000000
0.388302 1.000000 0.000000
0.399033 1.000000 0.000000
0.415084 1.000000 0.000000
0.459102 0.998945 0.000000
0.561075 0.980265 0.000000
0.733239 0.938319 0.000000
0.917375 0.889375 0.000000
0.995310 0.843828 0.000000
1.000000 0.813762 0.000000
0.690821 1.000000 0.000000
0.693412 1.000000 0.000000
0.697757 1.000000 0.000000
0.710498 1.000000 0.000000
0.744366 1.000000 0.000000
0.823888 0.992452 0.000000
0.934913 0.980222 0.000000
0.997936 0.962650 0.000000
1.000000 0.948759 0.000000
0.919577 1.000000 0.000000
0.920265 1.000000 0.000000
0.920936 1.000000 0.000000
0.923443 1.000000 0.000000
0.930505 1.000000 0.000000
0.948175 1.000000 0.000000
0.977372 0.997928 0.000000
1.000000 0.988083 0.000000
1.000000 0.980616 0.000000
0.010245 0.016636 0.105043
0.040734 0.007799 0.099052
0.111244 0.000000 0.082621
0.288730 0.000000 0.006641
0.561340 0.000000 0.000000
0.843539 0.000000 0.000000
0.995210 0.000000 0.000000
0.996155 0.000000 0.000000
0.996155 0.000000 0.000000
0.000000 0.058340 0.111303
0.039715 0.037964 0.102366
0.112370 0.013369 0.085420
0.288986 0.000000 0.009139
0.561885 0.000000 0.000000
0.843697 0.000000 0.000000
0.995210 0.000000 0.000000
0.996155 0.000000 0.000000
0.996155 0.000000 0.000000
0.000000 0.145186 0.128315
0.024177 0.133266 0.119358
0.107086 0.107236 0.100065
0.270003 0.027359 0.015498
0.536552 0.000236 0.000000
0.838660 0.000000 0.000000
0.995210 0.000000 0.000000
0.996155 0.000000 0.000000
0.996155 0.000000 0.000000
0.002344 0.362751 0.145317
0.038741 0.343693 0.135726
0.073010 0.316427 0.096287
0.253288 0.259971 0.072758
0.511476 0.170730 0.029416
0.780496 0.094237 0.000000
0.995114 0.000000 0.000000
0.996155 0.000000 0.000000
0.996155 0.000000 0.000000
0.000000 0.632563 0.116570
0.010989 0.617945 0.085806
0.064595 0.599262 0.076441
0.211004 0.556883 0.055775
0.482866 0.487031 0.018951
0.747816 0.384359 0.000000
0.961183 0.311738 0.000000
0.996155 0.016728 0.000000
0.996155 0.000000 0.000000
0.087237 0.875495 0.027886
0.112030 0.868539 0.024630
0.149632 0.858817 0.019838
0.251832 0.832893 0.007698
0.459568 0.780516 0.000000
0.715243 0.707004 0.000000
0.924484 0.617305 0.000000
0.995882 0.562315 0.000000
0.996155 0.249807 0.000000
0.388302 1.000000 0.000000
0.398657 1.000000 0.000000
0.414727 1.000000 0.000000
0.458749 0.998975 0.000000
0.561075 0.980265 0.000000
0.733239 0.938319 0.000000
0.917390 0.889140 0.000000
0.995310 0.843828 0.000000
1.000000 0.813509 0.000000
0.690654 1.000000 0.000000
0.693412 1.000000 0.000000
0.697592 1.000000 0.000000
0.710498 1.000000 0.000000
0.744366 1.000000 0.000000
0.823888 0.992452 0.000000
0.934913 0.980222 0.000000
0.997936 0.962650 0.000000
1.000000 0.948759 0.000000
0.919577 1.000000 0.000000
0.920265 1.000000 0.000000
0.920936 1.000000 0.000000
0.923443 1.000000 0.000000
0.930505 1.000000 0.000000
0.948175 1.000000 0.000000
0.977372 0.997928 0.000000
1.000000 0.988083 0.000000
1.000000 0.980616 0.000000
0.002188 0.021319 0.252221
0.036590 0.011769 0.243944
0.103349 0.000000 0.226637
0.284955 0.000000 0.184081
0.559252 0.000000 0.046277
0.851232 0.000000 0.000000
0.995226 0.000000 0.000000
0.996155 0.000000 0.000000
0.996155 0.000000 0.000000
0.000000 0.044272 0.256545
0.036295 0.024889 0.245814
0.108475 0.008206 0.227376
0.286887 0.000000 0.184518
0.560873 0.000000 0.045621
0.851534 0.000000 0.000000
0.995226 0.000000 0.000000
0.996155 0.000000 0.000000
0.996155 0.000000 0.000000
0.000000 0.164645 0.282664
0.000000 0.129118 0.272422
0.105564 0.091261 0.243721
0.274099 0.041353 0.200709
0.551773 0.000000 0.056660
0.851534 0.000000 0.000000
0.995242 0.000000 0.000000
0.996155 0.000000 0.000000
0.996155 0.000000 0.000000
0.000000 0.365185 0.327354
0.002165 0.346045 0.310703
0.078921 0.317571 0.290188
0.251943 0.252253 0.240881
0.506310 0.117678 0.087278
0.792233 0.061377 0.000000
0.995178 0.000000 0.000000
0.996155 0.000000 0.000000
0.996155 0.000000 0.000000
0.044401 0.633410 0.332983
0.080727 0.618900 0.323287
0.127881 0.600153 0.310438
0.207860 0.557460 0.242020
0.480547 0.487186 0.193867
0.745019 0.378807 0.118069
0.960911 0.306424 0.000000
0.996155 0.009511 0.000000
0.996155 0.000000 0.000000
0.084585 0.880078 0.239746
0.109019 0.873115 0.235016
0.146685 0.863349 0.228119
0.249726 0.837571 0.209778
0.447609 0.785497 0.170824
0.714060 0.710989 0.103081
0.923622 0.607557 0.033531
0.995946 0.561012 0.000000
0.996155 0.231020 0.000000
0.361493 1.000000 0.098075
0.371544 1.000000 0.095572
0.387022 1.000000 0.091541
0.429683 0.999548 0.081071
0.532010 0.983248 0.054318
0.712422 0.939991 0.000000
0.917407 0.888906 0.000000
0.995315 0.843651 0.000000
1.000000 0.813238 0.000000
0.690722 1.000000 0.000000
0.693297 1.000000 0.000000
0.697658 1.000000 0.000000
0.710382 1.000000 0.000000
0.744366 1.000000 0.000000
0.823661 0.992466 0.000000
0.934913 0.980222 0.000000
0.997936 0.962650 0.000000
1.000000 0.948759 0.000000
0.919577 1.000000 0.000000
0.920265 1.000000 0.000000
0.920936 1.000000 0.000000
0.923443 1.000000 0.000000
0.930505 1.000000 0.000000
0.948175 1.000000 0.000000
0.977372 0.997928 0.000000
1.000000 0.988083 0.000000
1.000000 0.980616 0.000000
0.000000 0.035784 0.481745
0.008936 0.012093 0.475749
0.092405 0.000301 0.456812
0.270500 0.000000 0.418386
0.553970 0.000000 0.355887
0.847877 0.000000 0.135456
0.995354 0.000000 0.000000
0.996155 0.000000 0.000000
0.996155 0.000000 0.000000
0.000000 0.035784 0.481745
0.014870 0.009668 0.473915
0.098120 0.000000 0.455397
0.274596 0.000000 0.417644
0.555434 0.000000 0.355231
0.848514 0.000000 0.134434
0.995354 0.000000 0.000000
0.996155 0.000000 0.000000
0.996155 0.000000 0.000000
0.000000 0.099001 0.494430
0.012260 0.061016 0.484233
0.103191 0.032604 0.460856
0.274400 0.001736 0.423548
0.554406 0.000000 0.358223
0.849134 0.000000 0.133312
0.995370 0.000000 0.000000
0.996155 0.000000 0.000000
0.996155 0.000000 0.000000
0.000000 0.402180 0.563101
0.000000 0.375722 0.551187
0.011054 0.305371 0.528392
0.249388 0.219066 0.469156
0.512532 0.138944 0.410882
0.813859 0.000000 0.165307
0.995370 0.000000 0.000000
0.996155 0.000000 0.000000
0.996155 0.000000 0.000000
0.000000 0.645820 0.595616
0.012861 0.629955 0.582200
0.067729 0.610277 0.568180
0.215480 0.565816 0.536021
0.478614 0.479200 0.467120
0.739048 0.330555 0.268717
0.968909 0.252895 0.000000
0.996155 0.000000 0.000000
0.996155 0.000000 0.000000
0.180622 0.885060 0.564725
0.201961 0.877922 0.560145
0.234689 0.868471 0.553388
0.322837 0.842410 0.536348
0.445448 0.789268 0.462174
0.713285 0.714921 0.413381
0.921649 0.617692 0.323937
0.995995 0.555637 0.000000
0.996155 0.212662 0.000000
0.358330 1.000000 0.449084
0.368695 1.000000 0.446812
0.384176 1.000000 0.443271
0.427065 1.000000 0.433459
0.529114 0.995539 0.411427
0.710099 0.948405 0.372449
0.916085 0.898027 0.297245
0.994871 0.839060 0.089650
1.000000 0.811963 0.000000
0.664260 1.000000 0.270503
0.667201 1.000000 0.269419
0.671633 1.000000 0.267789
0.684583 1.000000 0.262934
0.719771 1.000000 0.250186
0.804061 0.996146 0.213353
0.926261 0.983786 0.104930
0.997936 0.962650 0.000000
1.000000 0.948530 0.000000
0.919577 1.000000 0.000000
0.920024 1.000000 0.000000
0.920711 1.000000 0.000000
0.923218 1.000000 0.000000
0.930283 1.000000 0.000000
0.948175 1.000000 0.000000
0.977372 0.997928 0.000000
1.000000 0.988083 0.000000
1.000000 0.980616 0.000000
0.000000 0.051566 0.713668
0.000000 0.050788 0.713536
0.049224 0.009888 0.696337
0.245850 0.000000 0.653178
0.537469 0.000000 0.597947
0.841663 0.000000 0.533507
0.995339 0.000000 0.308292
0.996155 0.000000 0.000000
0.996155 0.000000 0.000000
0.000000 0.051566 0.713668
0.000000 0.049429 0.713057
0.063553 0.010553 0.693795
0.250303 0.000000 0.652331
0.538932 0.000000 0.597662
0.841981 0.000000 0.533098
0.995339 0.000000 0.307870
0.996155 0.000000 0.000000
0.996155 0.000000 0.000000
0.000000 0.051541 0.713441
0.000000 0.042099 0.711708
0.073961 0.007367 0.691214
0.257042 0.000000 0.650798
0.541561 0.000000 0.597027
0.842902 0.000000 0.532814
0.995339 0.000000 0.307310
0.996155 0.000000 0.000000
0.996155 0.000000 0.000000
0.000000 0.248969 0.760001
0.000000 0.223397 0.751327
0.047420 0.145206 0.724215
0.251608 0.087220 0.676121
0.525171 0.016148 0.622892
0.835514 0.000000 0.542100
0.995354 0.000000 0.304669
0.996155 0.000000 0.000000
0.996155 0.000000 0.000000
0.000000 0.688162 0.856972
0.000000 0.668020 0.844838
0.000000 0.633869 0.830334
0.110873 0.559488 0.789502
0.476199 0.438737 0.698545
0.747942 0.338394 0.637878
0.981583 0.020763 0.309478
0.996155 0.000000 0.000000
0.996155 0.000000 0.000000
0.083803 0.909600 0.850014
0.108623 0.901955 0.843886
0.147899 0.891344 0.835507
0.255139 0.863514 0.814216
0.462827 0.807193 0.771666
0.712857 0.709656 0.696360
0.917048 0.586758 0.520412
0.996043 0.510546 0.000000
0.996155 0.070201 0.000000
0.421880 1.000000 0.788565
0.433069 1.000000 0.786131
0.450403 1.000000 0.782834
0.495852 1.000000 0.769955
0.588588 0.997921 0.748088
0.707525 0.953655 0.682898
0.915524 0.904726 0.640996
0.997731 0.854251 0.587375
1.000000 0.806298 0.000000
0.661268 1.000000 0.673355
0.664212 1.000000 0.672735
0.668607 1.000000 0.671527
0.681677 1.000000 0.668223
0.717007 1.000000 0.660160
0.801310 1.000000 0.641179
0.924666 0.989357 0.607944
1.000000 0.975350 0.547839
1.000000 0.955032 0.269940
0.905766 1.000000 0.491095
0.906513 1.000000 0.490943
0.907259 1.000000 0.490647
0.909774 1.000000 0.489289
0.917808 1.000000 0.485121
0.937687 1.000000 0.474060
0.971365 1.000000 0.444194
1.000000 0.997863 0.335132
1.000000 0.980616 0.000000
0.000000 0.063881 0.901299
0.000000 0.063876 0.901136
0.000000 0.063876 0.901136
0.162295 0.000000 0.855254
0.508233 0.000000 0.787659
0.826049 0.000000 0.724481
0.995274 0.000000 0.672504
0.996155 0.000000 0.483725
0.996155 0.000000 0.000000
0.000000 0.063876 0.901136
0.000000 0.063876 0.901136
0.000000 0.063876 0.901136
0.167839 0.000000 0.854049
0.509986 0.000000 0.787302
0.826668 0.000000 0.724368
0.995290 0.000000 0.672472
0.996155 0.000000 0.482788
0.996155 0.000000 0.000000
0.000000 0.063876 0.901136
0.000000 0.063876 0.901136
0.000000 0.063876 0.901136
0.176606 0.000000 0.852143
0.512904 0.000000 0.786541
0.827446 0.000000 0.724046
0.995290 0.000000 0.672424
0.996155 0.000000 0.482788
0.996155 0.000000 0.000000
0.000000 0.063876 0.901136
0.000000 0.063876 0.901136
0.000000 0.057432 0.899993
0.201039 0.000000 0.846949
0.521381 0.000000 0.784842
0.830019 0.000000 0.723580
0.995306 0.000000 0.672360
0.996155 0.000000 0.482195
0.996155 0.000000 0.000000
0.000000 0.540360 1.000000
0.000000 0.530422 0.996752
0.000000 0.458917 0.975963
0.153363 0.323166 0.921507
0.484740 0.215193 0.851590
0.773404 0.123222 0.791934
0.995242 0.000000 0.704838
0.996155 0.000000 0.479525
0.996155 0.000000 0.000000
0.006036 0.894876 0.996551
0.005181 0.882542 0.997040
0.003942 0.864698 0.997747
0.086458 0.842269 0.997666
0.357365 0.809464 0.984926
0.709873 0.671641 0.883446
0.926111 0.589808 0.836120
0.996155 0.404524 0.626377
0.996155 0.000000 0.000000
0.330051 1.000000 0.986267
0.341873 1.000000 0.984861
0.359848 1.000000 0.982750
0.412445 1.000000 0.973908
0.531678 1.000000 0.961380
0.729849 0.980713 0.939017
0.915260 0.901544 0.874461
0.997395 0.838377 0.764199
1.000000 0.764241 0.000000
0.676461 1.000000 0.932827
0.679575 1.000000 0.932266
0.684334 1.000000 0.931292
0.698763 1.000000 0.928713
0.737914 1.000000 0.922215
0.827099 1.000000 0.903889
0.923199 0.991714 0.866777
1.000000 0.981552 0.844914
1.000000 0.970638 0.803900
0.904224 1.000000 0.856280
0.904729 1.000000 0.856181
0.905476 1.000000 0.856023
0.908256 1.000000 0.855279
0.916304 1.000000 0.853278
0.936467 1.000000 0.848461
0.971098 1.000000 0.838891
1.000000 1.000000 0.823505
1.000000 1.000000 0.784222
0.000000 0.069179 0.980829
0.000000 0.069179 0.980829
0.000000 0.069179 0.980829
0.000000 0.069179 0.980829
0.391919 0.000000 0.893418
0.797368 0.000000 0.817540
0.995017 0.000000 0.773712
0.996155 0.000000 0.739925
0.996155 0.000000 0.592635
0.000000 0.069179 0.980829
0.000000 0.069179 0.980829
0.000000 0.069179 0.980829
0.000000 0.069179 0.980829
0.394815 0.000000 0.892912
0.798001 0.000000 0.817427
0.995017 0.000000 0.773712
0.996155 0.000000 0.739908
0.996155 0.000000 0.592635
0.000000 0.069179 0.980829
0.000000 0.069179 0.980829
0.000000 0.069179 0.980829
0.000000 0.069179 0.980829
0.399185 0.000000 0.892127
0.798953 0.000000 0.817248
0.995034 0.000000 0.773663
0.996155 0.000000 0.739908
0.996155 0.000000 0.592635
0.000000 0.069179 0.980829
0.000000 0.069179 0.980829
0.000000 0.069179 0.980829
0.000000 0.069179 0.980829
0.412170 0.000000 0.889823
0.801965 0.000000 0.816712
0.995034 0.000000 0.773598
0.996155 0.000000 0.739876
0.996155 0.000000 0.592635
0.000000 0.069179 0.980829
0.000000 0.069179 0.980829
0.000000 0.069179 0.980829
0.000000 0.069179 0.980829
0.449357 0.000000 0.882996
0.810862 0.000000 0.815121
0.995081 0.000000 0.773485
0.996155 0.000000 0.739570
0.996155 0.000000 0.590987
0.000000 0.777493 1.000000
0.000000 0.773184 1.000000
0.000000 0.758313 1.000000
0.000000 0.654198 1.000000
0.379838 0.556818 1.000000
0.718626 0.438983 0.930228
0.952598 0.341469 0.884319
0.996155 0.080741 0.815933
0.996155 0.000000 0.588293
0.115074 0.990944 0.991559
0.136861 0.991210 0.991297
0.170072 0.992102 0.990879
0.257927 0.994128 0.989785
0.424516 0.978018 0.988487
0.647476 0.944693 0.987207
0.912980 0.874930 0.954061
0.999803 0.830685 0.931988
1.000000 0.678138 0.794290
0.633967 1.000000 0.984910
0.637494 1.000000 0.984861
0.642604 1.000000 0.984790
0.657707 1.000000 0.984588
0.699503 1.000000 0.984038
0.792140 1.000000 0.981235
0.940440 1.000000 0.981173
1.000000 0.982008 0.950628
1.000000 0.972329 0.917436
0.908510 1.000000 0.968382
0.909031 1.000000 0.968331
0.910079 1.000000 0.968215
0.912968 1.000000 0.967904
0.921344 1.000000 0.966997
0.944167 1.000000 0.964473
0.979731 1.000000 0.958644
1.000000 1.000000 0.949079
1.000000 1.000000 0.944374
0.000000 0.070525 1.000000
0.000000 0.070525 1.000000
0.000000 0.070525 1.000000
0.000000 0.070525 1.000000
0.000000 0.070525 1.000000
0.673965 0.000000 0.864265
0.988579 0.000000 0.799355
0.996155 0.000000 0.809247
0.996155 0.000000 0.772935
0.000000 0.070525 1.000000
0.000000 0.070525 1.000000
0.000000 0.070525 1.000000
0.000000 0.070525 1.000000
0.000000 0.070525 1.000000
0.674860 0.000000 0.864103
0.988691 0.000000 0.799323
0.996155 0.000000 0.809296
0.996155 0.000000 0.772935
0.000000 0.070525 1.000000
0.000000 0.070525 1.000000
0.000000 0.070525 1.000000
0.000000 0.070525 1.000000
0.000000 0.070525 1.000000
0.676496 0.000000 0.863793
0.988804 0.000000 0.799290
0.996155 0.000000 0.809296
0.996155 0.000000 0.772935
0.000000 0.070525 1.000000
0.000000 0.070525 1.000000
0.000000 0.070525 1.000000
0.000000 0.070525 1.000000
0.000000 0.070525 1.000000
0.681089 0.000000 0.862929
0.989236 0.000000 0.799192
0.996155 0.000000 0.809328
0.996155 0.000000 0.772935
0.000000 0.070525 1.000000
0.000000 0.070525 1.000000
0.000000 0.070525 1.000000
0.000000 0.070525 1.000000
0.000000 0.070525 1.000000
0.695286 0.000000 0.860239
0.990549 0.000000 0.798901
0.996155 0.000000 0.809457
0.996155 0.000000 0.772676
0.000000 0.070525 1.000000
0.000000 0.070525 1.000000
0.000000 0.070525 1.000000
0.000000 0.070525 1.000000
0.000000 0.070525 1.000000
0.733096 0.000000 0.852974
0.993609 0.000000 0.798464
0.996155 0.000000 0.809830
0.996155 0.000000 0.772256
0.011766 0.977444 0.993276
0.011766 0.977444 0.993276
0.011128 0.968246 0.993641
0.007923 0.922066 0.995472
0.226622 0.855433 0.995535
0.630654 0.769826 0.994195
0.912572 0.679165 0.954665
1.000000 0.618431 0.931790
0.996155 0.341789 0.886621
0.430583 0.999562 0.987580
0.437923 0.999752 0.987488
0.449266 1.000000 0.987346
0.483575 1.000000 0.986915
0.569660 1.000000 0.985834
0.720660 1.000000 0.983990
0.890518 0.993803 0.982492
1.000000 0.975326 0.972864
1.000000 0.966833 0.967560
0.890644 1.000000 0.981809
0.891135 1.000000 0.981803
0.892078 1.000000 0.981791
0.894718 1.000000 0.981758
0.903663 1.000000 0.981646
0.928387 1.000000 0.981336
0.969800 1.000000 0.980817
1.000000 1.000000 0.980326
1.000000 1.000000 0.976094
