luts/Arrow_Vibrant_Turquoise_DJI_Drone.cube
TITLE "Arrow Vibrant Turquoise - DJI Drone"
# Color Graded by VegasDavinciLinkTool
# Look: Vibrant Turquoise Lagoon & Golden Sun Pop
LUT_3D_SIZE 9
0.000000 0.000000 0.000000
0.063378 0.000000 0.001048
0.225162 0.000000 0.009100
0.440290 0.000000 0.039635
0.592094 0.000000 0.042258
0.743279 0.000000 0.041260
0.870486 0.000000 0.031517
0.965099 0.000000 0.013363
1.000000 0.014242 0.000000
0.000047 0.051224 0.000000
0.048032 0.048003 0.000000
0.212781 0.041497 0.000000
0.398711 0.023611 0.000000
0.566985 0.004448 0.000000
0.738916 0.000000 0.007881
0.874744 0.000000 0.011139
0.968468 0.000000 0.002445
1.000000 0.045744 0.000000
0.000000 0.188721 0.000000
0.019701 0.185977 0.000000
0.179447 0.183107 0.000000
0.372385 0.179363 0.000000
0.545975 0.180660 0.000000
0.719641 0.157292 0.000000
0.866174 0.130397 0.000000
0.962559 0.129247 0.000000
1.000000 0.133665 0.000000
0.000000 0.347324 0.000000
0.002042 0.346815 0.000000
0.130676 0.345079 0.000000
0.328244 0.341907 0.000000
0.513248 0.329417 0.000000
0.688745 0.323509 0.000000
0.844635 0.311256 0.000000
0.950936 0.287581 0.000000
1.000000 0.250752 0.000000
0.000004 0.503070 0.000000
0.000247 0.502782 0.000000
0.053721 0.501648 0.000000
0.271642 0.496601 0.000000
0.463268 0.484938 0.000000
0.653663 0.455967 0.000000
0.825761 0.431519 0.000000
0.940369 0.401013 0.000000
0.997775 0.349700 0.000000
0.000006 0.660273 0.000000
0.000062 0.660070 0.000000
0.004323 0.659157 0.000000
0.168460 0.654318 0.000000
0.389008 0.644677 0.000000
0.600316 0.627949 0.000000
0.804508 0.576883 0.000000
0.929032 0.517306 0.000000
0.992116 0.458388 0.000000
0.000013 0.822534 0.000000
0.000036 0.822447 0.000000
0.000289 0.822108 0.000000
0.016922 0.820901 0.000000
0.231088 0.815523 0.000000
0.496576 0.804382 0.000000
0.754602 0.777868 0.000000
0.918815 0.703349 0.000000
0.983968 0.612000 0.000000
0.002236 0.940945 0.000000
0.002252 0.940904 0.000000
0.002297 0.940807 0.000000
0.002673 0.940512 0.000000
0.019845 0.939887 0.000000
0.256029 0.938067 0.000000
0.630903 0.929239 0.000000
0.892784 0.904605 0.000000
0.994610 0.842288 0.000000
0.006536 1.000000 0.000000
0.006539 1.000000 0.000000
0.006554 1.000000 0.000000
0.006694 1.000000 0.000000
0.008282 1.000000 0.000000
0.021100 1.000000 0.000000
0.302491 1.000000 0.000000
0.795699 1.000000 0.000000
1.000000 0.995389 0.000000
0.000000 0.001163 0.058878
0.060487 0.000700 0.059830
0.234339 0.000000 0.063152
0.444139 0.000000 0.076817
0.594430 0.000000 0.067983
0.743646 0.000000 0.058715
0.869248 0.000000 0.045277
0.963527 0.000000 0.031709
1.000000 0.000000 0.017597
0.000000 0.051040 0.047800
0.047410 0.047424 0.043493
0.212175 0.012924 0.015416
0.401085 0.000000 0.010331
0.572233 0.000000 0.018287
0.738883 0.000000 0.022057
0.871187 0.000000 0.019175
0.964683 0.000000 0.006572
1.000000 0.000000 0.000475
0.000000 0.187786 0.015727
0.001391 0.185754 0.000000
0.178011 0.181407 0.000000
0.370361 0.168784 0.000000
0.544364 0.162410 0.000000
0.721199 0.133462 0.000000
0.871018 0.096921 0.000000
0.968619 0.075230 0.000000
1.000000 0.070984 0.000000
0.000000 0.347436 0.002609
0.000000 0.346791 0.000691
0.126851 0.344294 0.000000
0.326295 0.340004 0.000000
0.512148 0.323481 0.000000
0.690181 0.312988 0.000000
0.849994 0.291256 0.000000
0.958046 0.252740 0.000000
1.000000 0.196921 0.000000
0.000000 0.502983 0.000000
0.000112 0.502630 0.000000
0.051955 0.501226 0.000000
0.270827 0.495882 0.000000
0.463312 0.483855 0.000000
0.655011 0.451890 0.000000
0.829733 0.422581 0.000000
0.945628 0.386682 0.000000
1.000000 0.327977 0.000000
0.000000 0.660106 0.000000
0.000005 0.659893 0.000000
0.003678 0.659015 0.000000
0.173066 0.654140 0.000000
0.391117 0.644611 0.000000
0.602427 0.627918 0.000000
0.806865 0.574732 0.000000
0.932299 0.511598 0.000000
0.995622 0.450223 0.000000
0.000002 0.822446 0.000000
0.000006 0.822369 0.000000
0.000091 0.822075 0.000000
0.016923 0.820957 0.000000
0.235661 0.815611 0.000000
0.499108 0.804684 0.000000
0.756448 0.778349 0.000000
0.920542 0.702420 0.000000
0.987038 0.610940 0.000000
0.002229 0.940915 0.000000
0.002236 0.940881 0.000000
0.002251 0.940801 0.000000
0.002485 0.940547 0.000000
0.019748 0.939984 0.000000
0.260087 0.938248 0.000000
0.632811 0.929618 0.000000
0.893974 0.905257 0.000000
0.996658 0.843912 0.000000
0.006529 1.000000 0.000000
0.006531 1.000000 0.000000
0.006545 1.000000 0.000000
0.006646 1.000000 0.000000
0.008426 1.000000 0.000000
0.020925 1.000000 0.000000
0.305791 1.000000 0.000000
0.796980 1.000000 0.000000
1.000000 0.996295 0.000000
0.000000 0.005359 0.227092
0.056202 0.000000 0.220841
0.251871 0.000000 0.233386
0.442474 0.000001 0.233330
0.591369 0.000582 0.225105
0.741380 0.000000 0.209424
0.867793 0.000000 0.180151
0.962969 0.000000 0.146828
1.000000 0.000000 0.107224
0.000000 0.069360 0.223935
0.036965 0.041116 0.212143
0.217370 0.033257 0.203231
0.413699 0.034130 0.204651
0.576860 0.033554 0.202205
0.736470 0.000000 0.166635
0.868080 0.000000 0.145961
0.964014 0.000000 0.121218
1.000000 0.000000 0.088452
0.000000 0.189971 0.186544
0.000000 0.187617 0.183353
0.181846 0.181879 0.173302
0.366202 0.133196 0.128655
0.541488 0.082445 0.090010
0.724728 0.033704 0.058915
0.871173 0.001409 0.036412
0.967878 0.000000 0.035520
1.000000 0.000000 0.028977
0.000000 0.346647 0.141089
0.001410 0.345715 0.139179
0.103362 0.342124 0.105344
0.328635 0.334387 0.097113
0.512281 0.303784 0.087822
0.698108 0.278079 0.071994
0.875167 0.156337 0.000000
0.975864 0.101869 0.000000
1.000000 0.075270 0.000000
0.000000 0.502253 0.100575
0.000000 0.501761 0.099175
0.006379 0.499953 0.041381
0.246916 0.492950 0.034106
0.465522 0.479825 0.025382
0.661537 0.437863 0.042427
0.847141 0.389774 0.013739
0.964166 0.338042 0.020060
1.000000 0.232198 0.000000
0.000000 0.659325 0.039822
0.000000 0.659067 0.038666
0.000000 0.658125 0.030829
0.157676 0.653119 0.000000
0.386995 0.644011 0.000000
0.608149 0.627769 0.000000
0.815410 0.568807 0.008423
0.944308 0.489044 0.000000
1.000000 0.420457 0.000000
0.000000 0.822202 0.000000
0.000000 0.822123 0.000000
0.000000 0.821841 0.000000
0.016117 0.820903 0.000000
0.247578 0.815641 0.000000
0.505700 0.805394 0.000000
0.761543 0.779860 0.000000
0.926662 0.702121 0.005256
0.996572 0.609182 0.000000
0.002220 0.940823 0.000000
0.002218 0.940796 0.000000
0.002215 0.940727 0.000000
0.002229 0.940559 0.000000
0.025858 0.940151 0.000000
0.271419 0.938657 0.000000
0.638071 0.930628 0.000000
0.897467 0.907194 0.000000
1.000000 0.849384 0.000000
0.006521 1.000000 0.000000
0.006521 1.000000 0.000000
0.006528 1.000000 0.000000
0.006556 1.000000 0.000000
0.008875 1.000000 0.000000
0.024477 1.000000 0.000000
0.315230 1.000000 0.000000
0.800668 1.000000 0.000000
1.000000 0.998937 0.000000
0.000000 0.012087 0.424708
0.055367 0.000000 0.418446
0.252243 0.000000 0.416609
0.441855 0.000000 0.410843
0.589970 0.000000 0.396906
0.737068 0.000000 0.379143
0.865500 0.002134 0.341018
0.962070 0.000000 0.286733
1.000000 0.000000 0.222481
0.000000 0.061400 0.418816
0.060217 0.025417 0.402433
0.222034 0.019401 0.395982
0.419698 0.028965 0.392676
0.578131 0.028578 0.382308
0.732745 0.028084 0.367319
0.866016 0.026058 0.331302
0.963139 0.000000 0.265091
1.000000 0.000000 0.205358
0.000000 0.240099 0.403613
0.000000 0.229934 0.398615
0.169608 0.167127 0.368791
0.368427 0.155784 0.352790
0.544546 0.132163 0.337503
0.723505 0.115625 0.325529
0.869807 0.000000 0.219380
0.967069 0.000000 0.188604
1.000000 0.000000 0.150301
0.000000 0.352377 0.351684
0.000000 0.350842 0.349340
0.099155 0.347563 0.342669
0.339419 0.339473 0.329268
0.515835 0.287471 0.279477
0.700405 0.221167 0.223456
0.877878 0.117730 0.154478
0.975890 0.053919 0.113880
1.000000 0.027784 0.078678
0.000000 0.503110 0.301547
0.000000 0.502336 0.299640
0.069970 0.498408 0.289576
0.252546 0.488985 0.249117
0.471334 0.475488 0.235016
0.666585 0.435092 0.213440
0.859380 0.395338 0.186708
0.983102 0.194047 0.046842
1.000000 0.172647 0.059912
0.000000 0.657285 0.229342
0.000000 0.656983 0.228164
0.011417 0.655705 0.224514
0.129642 0.650513 0.157299
0.371488 0.641542 0.147333
0.613660 0.625913 0.132029
0.828891 0.566308 0.131415
0.969431 0.477869 0.062721
1.000000 0.416584 0.103125
0.000000 0.821155 0.126739
0.000000 0.821065 0.125761
0.000000 0.820738 0.122337
0.000000 0.819795 0.100740
0.182699 0.814502 0.018559
0.471277 0.805062 0.005967
0.767125 0.782507 0.000000
0.940296 0.707844 0.042963
1.000000 0.603285 0.029476
0.002214 0.940687 0.000000
0.002212 0.940659 0.000000
0.002206 0.940575 0.000000
0.003315 0.940403 0.000000
0.041044 0.940128 0.000000
0.287396 0.938975 0.000000
0.645738 0.931986 0.000000
0.903277 0.910682 0.000000
1.000000 0.859782 0.000000
0.006520 1.000000 0.000000
0.006520 1.000000 0.000000
0.006521 1.000000 0.000000
0.006523 1.000000 0.000000
0.009610 1.000000 0.000000
0.031367 1.000000 0.000000
0.329510 1.000000 0.000000
0.806267 1.000000 0.000000
1.000000 1.000000 0.000000
0.000000 0.010446 0.600567
0.073309 0.000000 0.595046
0.250312 0.000000 0.583240
0.436643 0.000000 0.572286
0.590376 0.000000 0.556617
0.733404 0.000000 0.530974
0.862928 0.000000 0.489050
0.960752 0.003324 0.432866
1.000000 0.008542 0.354497
0.000000 0.027037 0.592707
0.079054 0.006633 0.580483
0.237817 0.003894 0.572551
0.422967 0.013428 0.563221
0.582336 0.021137 0.549076
0.730649 0.021359 0.523771
0.863419 0.021339 0.483864
0.961859 0.021114 0.427997
1.000000 0.022223 0.350792
0.000000 0.244680 0.592414
0.000000 0.234524 0.586516
0.193979 0.154387 0.550635
0.375134 0.141679 0.540204
0.549459 0.120619 0.526923
0.721510 0.111389 0.503578
0.867200 0.099304 0.467351
0.965794 0.084678 0.412580
1.000000 0.000000 0.286182
0.000000 0.419620 0.570745
0.000000 0.417585 0.568400
0.021504 0.365146 0.556727
0.329245 0.321986 0.516897
0.514245 0.307680 0.500161
0.699685 0.273684 0.473838
0.878233 0.203029 0.432812
0.974595 0.052154 0.297242
1.000000 0.023766 0.222428
0.000000 0.507973 0.511889
0.000000 0.507076 0.510391
0.000000 0.502688 0.504883
0.252326 0.497127 0.492591
0.482089 0.482155 0.472352
0.667201 0.414426 0.406199
0.860504 0.330684 0.335546
0.983169 0.183885 0.242539
1.000000 0.168324 0.203037
0.000000 0.659762 0.443451
0.000000 0.659331 0.442170
0.000000 0.657382 0.433739
0.195230 0.647138 0.415149
0.374544 0.637845 0.370720
0.617680 0.621753 0.353108
0.830389 0.566072 0.318382
0.971417 0.493827 0.264839
1.000000 0.348681 0.173430
0.000000 0.819165 0.326214
0.000000 0.819048 0.325342
0.000019 0.818677 0.322759
0.033133 0.817456 0.318212
0.194932 0.811969 0.238042
0.480659 0.803166 0.219968
0.773924 0.781891 0.188221
0.953393 0.712499 0.185869
1.000000 0.602377 0.164645
0.003300 0.940458 0.155917
0.003293 0.940431 0.155203
0.003270 0.940328 0.153039
0.003202 0.940091 0.145681
0.002791 0.939245 0.095648
0.210651 0.937695 0.027768
0.612152 0.932577 0.005047
0.910132 0.916291 0.000000
1.000000 0.859311 0.000000
0.006520 1.000000 0.000000
0.006520 1.000000 0.000000
0.006520 1.000000 0.000000
0.006520 1.000000 0.000000
0.010368 1.000000 0.000000
0.038609 1.000000 0.000000
0.346942 1.000000 0.000000
0.813138 1.000000 0.000000
1.000000 1.000000 0.000000
0.000000 0.022004 0.785755
0.092261 0.000000 0.772513
0.250058 0.000000 0.765387
0.437352 0.000000 0.749820
0.593308 0.000000 0.730486
0.730206 0.000000 0.696472
0.860696 0.000000 0.651541
0.958724 0.000000 0.590935
1.000000 0.005569 0.500206
0.000000 0.015301 0.778879
0.077869 0.000119 0.769658
0.253503 0.000683 0.759119
0.436831 0.002628 0.744741
0.591028 0.007130 0.726865
0.728920 0.011267 0.693785
0.861106 0.013720 0.649541
0.959750 0.016094 0.588995
1.000000 0.017763 0.497811
0.000000 0.225003 0.779407
0.000000 0.192821 0.773435
0.202552 0.129926 0.747896
0.389759 0.113888 0.738745
0.558844 0.101820 0.726313
0.720385 0.101379 0.691281
0.864222 0.092576 0.646165
0.963513 0.080020 0.582769
1.000000 0.065063 0.490473
0.000000 0.437520 0.780067
0.000000 0.433843 0.776805
0.028003 0.349225 0.761316
0.351587 0.304556 0.719256
0.518763 0.287519 0.703347
0.700945 0.255423 0.680460
0.876490 0.191499 0.641075
0.972113 0.161525 0.569564
1.000000 0.134281 0.477691
0.000000 0.576859 0.751043
0.000000 0.575840 0.749863
0.000000 0.566186 0.747039
0.177222 0.510916 0.725979
0.475293 0.457161 0.672389
0.665999 0.436494 0.652147
0.859408 0.387530 0.615953
0.982800 0.271173 0.546175
1.000000 0.161251 0.385625
0.000000 0.662007 0.670979
0.000000 0.661439 0.670005
0.000000 0.659508 0.667033
0.110185 0.655426 0.659652
0.376882 0.649966 0.647781
0.631167 0.631243 0.623165
0.829441 0.540157 0.534446
0.971460 0.426284 0.439723
1.000000 0.343099 0.359904
0.000000 0.823624 0.575483
0.000000 0.823432 0.574673
0.000000 0.822837 0.572264
0.026843 0.819446 0.554491
0.277203 0.808969 0.534557
0.484600 0.799416 0.476947
0.778249 0.777760 0.443467
0.955296 0.708975 0.401282
1.000000 0.617307 0.361630
0.004938 0.939681 0.396545
0.004932 0.939653 0.395989
0.004911 0.939521 0.394290
0.010158 0.939296 0.391381
0.066288 0.939019 0.386315
0.231464 0.936884 0.296422
0.623462 0.931938 0.271012
0.917558 0.917821 0.230584
1.000000 0.854236 0.266300
0.007740 1.000000 0.164614
0.007736 1.000000 0.164002
0.007722 1.000000 0.162129
0.007700 1.000000 0.159071
0.007639 1.000000 0.150635
0.007367 1.000000 0.113157
0.275439 1.000000 0.017875
0.792355 1.000000 0.000000
1.000000 1.000000 0.000000
0.000000 0.023114 0.948511
0.052935 0.000000 0.941336
0.246981 0.000000 0.934332
0.440819 0.000000 0.921769
0.593618 0.000000 0.902057
0.733852 0.000001 0.871580
0.857513 0.000000 0.830326
0.956262 0.000001 0.774488
1.000000 0.000536 0.691691
0.000000 0.023393 0.947076
0.069638 0.000000 0.937490
0.255458 0.000000 0.931514
0.452422 0.000000 0.917413
0.593024 0.000000 0.900695
0.733096 0.000001 0.870611
0.857531 0.000374 0.829137
0.956585 0.006342 0.774503
1.000000 0.012069 0.691253
0.000000 0.168944 0.949878
0.000000 0.142884 0.946704
0.208932 0.076269 0.928146
0.415460 0.049811 0.917948
0.573264 0.039483 0.903231
0.725624 0.054121 0.877034
0.859817 0.074701 0.834586
0.959971 0.067402 0.775392
1.000000 0.057851 0.690142
0.000000 0.417975 0.956748
0.000000 0.413678 0.955195
0.042689 0.307739 0.940333
0.350713 0.265044 0.907314
0.540438 0.238951 0.894526
0.706273 0.212165 0.883280
0.869584 0.175362 0.849621
0.967485 0.152114 0.780321
1.000000 0.119153 0.688581
0.000000 0.595743 0.952640
0.000000 0.593489 0.951350
0.000000 0.561011 0.945060
0.197425 0.475739 0.920652
0.488632 0.427560 0.879770
0.674608 0.406403 0.866059
0.858136 0.359117 0.842516
0.981391 0.244638 0.790889
1.000000 0.253473 0.677952
0.000000 0.728377 0.924210
0.000000 0.727789 0.923626
0.000000 0.725891 0.922382
0.000000 0.697190 0.922048
0.293794 0.662472 0.901656
0.617234 0.596447 0.841806
0.826381 0.559409 0.814443
0.969648 0.479670 0.765004
1.000000 0.417106 0.660272
0.000000 0.822850 0.837053
0.000000 0.822615 0.836630
0.000000 0.821909 0.835384
0.000000 0.820132 0.832905
0.168751 0.818472 0.824346
0.486029 0.814178 0.807080
0.797772 0.790184 0.771508
0.954674 0.687347 0.675363
1.000000 0.569227 0.571732
0.008042 0.951455 0.721159
0.008032 0.951368 0.720725
0.008007 0.951130 0.719434
0.007950 0.950618 0.716374
0.007698 0.948700 0.699569
0.329600 0.936756 0.668281
0.629364 0.929617 0.606855
0.923520 0.915456 0.569811
1.000000 0.842076 0.533761
0.010285 1.000000 0.515541
0.010282 1.000000 0.515163
0.010274 1.000000 0.514048
0.010459 1.000000 0.512223
0.011835 1.000000 0.509596
0.039800 1.000000 0.504881
0.314588 1.000000 0.418927
0.807104 1.000000 0.388539
1.000000 1.000000 0.344900
0.000000 0.027509 1.000000
0.000000 0.009218 1.000000
0.182510 0.000000 1.000000
0.388805 0.000000 1.000000
0.568492 0.000000 1.000000
0.742211 0.000000 0.996656
0.864960 0.000000 0.974715
0.951371 0.000000 0.932884
1.000000 0.000000 0.870837
0.000000 0.027665 1.000000
0.000000 0.011883 1.000000
0.176224 0.000000 1.000000
0.402021 0.000000 1.000000
0.578369 0.000000 1.000000
0.740691 0.000000 0.996587
0.865111 0.000000 0.974080
0.951397 0.000000 0.932377
1.000000 0.000000 0.870479
0.000000 0.031880 1.000000
0.000000 0.014364 1.000000
0.173203 0.000359 1.000000
0.386930 0.001477 1.000000
0.571541 0.003782 1.000000
0.740268 0.007952 0.996778
0.866039 0.020377 0.975491
0.953219 0.036868 0.934623
1.000000 0.038468 0.872661
0.000000 0.320114 1.000000
0.000000 0.313201 1.000000
0.063692 0.214775 1.000000
0.346863 0.183189 1.000000
0.536669 0.153627 1.000000
0.723974 0.112271 1.000000
0.867926 0.101157 0.984342
0.958709 0.127006 0.942778
1.000000 0.084843 0.881900
0.000000 0.531517 1.000000
0.000000 0.529404 1.000000
0.000000 0.505554 1.000000
0.208835 0.402936 1.000000
0.486519 0.370582 1.000000
0.689321 0.336979 0.998080
0.861130 0.283655 0.988774
0.972024 0.213628 0.960180
1.000000 0.224699 0.878977
0.000000 0.704463 1.000000
0.000000 0.703592 1.000000
0.000000 0.700934 1.000000
0.000000 0.628507 1.000000
0.332476 0.588480 1.000000
0.634105 0.547953 0.989862
0.832632 0.508634 0.977607
0.967165 0.437618 0.957273
1.000000 0.396249 0.872488
0.001847 0.834508 0.998944
0.001833 0.834305 0.998952
0.001791 0.833691 0.998977
0.001682 0.832119 0.999039
0.000000 0.798878 1.000000
0.372637 0.804250 0.995838
0.778354 0.743183 0.950841
0.955304 0.702292 0.929565
1.000000 0.613903 0.856758
0.009557 0.949308 0.957947
0.009550 0.949212 0.957794
0.009528 0.948947 0.957329
0.009489 0.948473 0.956569
0.009420 0.947599 0.955374
0.191009 0.949126 0.949361
0.633027 0.951910 0.934470
0.950217 0.934682 0.905403
1.000000 0.821762 0.799071
0.012853 1.000000 0.869793
0.012852 1.000000 0.869613
0.012848 1.000000 0.869082
0.012841 1.000000 0.868188
0.012832 1.000000 0.866941
0.012780 1.000000 0.859693
0.398539 1.000000 0.829917
0.815705 1.000000 0.779316
1.000000 1.000000 0.750629
0.000000 0.011028 1.000000
0.027893 0.000000 1.000000
0.215309 0.000000 1.000000
0.399855 0.000000 1.000000
0.574876 0.000000 1.000000
0.735725 0.000000 1.000000
0.875150 0.000000 1.000000
0.955745 0.000000 0.999313
1.000000 0.000000 0.974577
0.000000 0.010718 1.000000
0.028171 0.000000 1.000000
0.215594 0.000000 1.000000
0.413048 0.000000 1.000000
0.573223 0.000000 1.000000
0.736225 0.000000 1.000000
0.875282 0.000000 1.000000
0.955786 0.000000 0.999298
1.000000 0.000000 0.974585
0.004108 0.000000 1.000000
0.057494 0.000000 1.000000
0.233691 0.000000 1.000000
0.419880 0.000000 1.000000
0.577548 0.000000 1.000000
0.740217 0.000000 1.000000
0.876715 0.000000 1.000000
0.955942 0.000000 0.999241
1.000000 0.000000 0.975278
0.000000 0.144184 1.000000
0.000000 0.094947 1.000000
0.186323 0.056693 1.000000
0.386598 0.028406 1.000000
0.554188 0.003586 1.000000
0.723631 0.002239 1.000000
0.878542 0.000000 1.000000
0.965619 0.000000 1.000000
1.000000 0.005075 0.986859
0.000000 0.445363 1.000000
0.000000 0.442074 1.000000
0.000000 0.359071 1.000000
0.282670 0.290112 1.000000
0.503966 0.274030 1.000000
0.700761 0.229415 1.000000
0.869221 0.158483 1.000000
0.975557 0.061937 1.000000
1.000000 0.104673 0.993540
0.000000 0.654937 1.000000
0.000000 0.653575 1.000000
0.000000 0.648780 1.000000
0.059443 0.551490 1.000000
0.387143 0.518886 1.000000
0.644881 0.481880 1.000000
0.842262 0.430637 1.000000
0.967213 0.354816 1.000000
1.000000 0.322977 0.993632
0.000000 0.803424 1.000000
0.000000 0.803017 1.000000
0.000000 0.801838 1.000000
0.000000 0.797202 1.000000
0.054202 0.756492 1.000000
0.440741 0.742190 0.997462
0.794012 0.699316 0.995048
0.959883 0.646903 0.995169
1.000000 0.578135 0.991109
0.007842 0.920898 0.995519
0.007833 0.920770 0.995524
0.007809 0.920416 0.995538
0.007764 0.919769 0.995563
0.007701 0.918857 0.995600
0.050119 0.904500 0.995668
0.573081 0.911528 0.989355
0.932959 0.892254 0.985947
1.000000 0.840753 0.980396
0.012524 0.988360 0.992844
0.012524 0.988360 0.992844
0.012524 0.988360 0.992844
0.012524 0.988360 0.992844
0.012524 0.988360 0.992844
0.012524 0.988360 0.992844
0.260768 0.995123 0.989714
0.799635 1.000000 0.982950
1.000000 1.000000 0.980000
